;Generated with Cura_SteamEngine 15.04
M109 S210     ;Heatup to 210C
G21           ;metric values
G90           ;absolute positioning
G28           ;Home
G1 Z15.0 F300 ;move the platform down 15mm
G92 E0        ;zero the extruded length
G1 F200 E5    ;extrude 5mm of feed stock
G92 E0        ;zero the extruded length again

;Layer count: 339
;LAYER:0
M107
G0 F9000 X80.756 Y84.704 Z0.300
;TYPE:SKIRT
G1 F1200 X84.711 Y80.749 E0.15348
G1 X88.749 Y80.778 E0.26429
G1 X96.318 Y80.831 E0.47198
G1 X100.004 Y85.025 E0.62520
G1 X100.004 Y94.757 E0.89225
G1 X96.915 Y96.922 E0.99576
G1 X94.750 Y100.020 E1.09947
G1 X85.026 Y99.996 E1.36630
G1 X80.837 Y96.313 E1.51935
G1 X80.814 Y92.706 E1.61833
G1 X80.756 Y84.704 E1.83791
G0 F9000 X85.074 Y100.949
G1 F1200 X87.935 Y100.954 E1.91642
G1 X94.776 Y100.962 E2.10414
G1 X96.947 Y104.063 E2.20801
G1 X100.046 Y106.237 E2.31189
G1 X100.046 Y110.030 E2.41597
G1 X100.048 Y115.921 E2.57762
G1 X96.382 Y120.186 E2.73194
G1 X88.867 Y120.240 E2.93816
G1 X84.688 Y120.251 E3.05283
G1 X80.728 Y116.290 E3.20652
G1 X80.783 Y108.334 E3.42484
G1 X80.787 Y104.630 E3.52648
G1 X85.074 Y100.949 E3.68153
G0 F9000 X100.955 Y106.238
G1 F1200 X104.054 Y104.068 E3.78534
G1 X106.229 Y100.959 E3.88946
G1 X110.031 Y100.966 E3.99379
G1 X115.934 Y100.961 E4.15577
G1 X120.321 Y104.755 E4.31492
G1 X119.981 Y113.513 E4.55542
G1 X119.994 Y116.213 E4.62951
G1 X116.204 Y120.003 E4.77659
G1 X113.500 Y119.976 E4.85079
G1 X104.733 Y120.319 E5.09154
G1 X100.955 Y115.920 E5.25066
G1 X100.955 Y106.238 E5.51633
G0 F9000 X106.234 Y100.044
G1 F1200 X104.062 Y96.940 E5.62029
G1 X100.960 Y94.765 E5.72425
G1 X100.967 Y90.973 E5.82830
G1 X100.964 Y85.048 E5.99088
G1 X104.643 Y80.806 E6.14496
G1 X108.345 Y80.784 E6.24655
G1 X116.315 Y80.783 E6.46525
G1 X120.222 Y84.726 E6.61756
G1 X120.199 Y88.067 E6.70924
G1 X120.199 Y96.332 E6.93604
G1 X115.954 Y100.026 E7.09045
G1 X113.098 Y100.032 E7.16882
G1 X106.234 Y100.044 E7.35717
G1 F2700 E2.85717
G0 F9000 X92.804 Y91.012
;TYPE:WALL-INNER
G1 F2700 E7.35717
G1 F1200 X92.253 Y91.398 E7.37563
G1 X91.390 Y92.260 E7.40910
G1 X91.005 Y92.811 E7.42754
G1 X88.014 Y92.803 E7.50962
G1 X87.980 Y87.973 E7.64216
G1 X92.804 Y88.007 E7.77453
G1 X92.804 Y91.012 E7.85699
G0 F9000 X92.640 Y91.859
;TYPE:WALL-OUTER
G1 F1200 X91.851 Y92.647 E7.88759
G1 X91.317 Y93.412 E7.91319
G1 X87.522 Y93.402 E8.01732
G1 X87.418 Y93.311 E8.02112
G1 X87.376 Y87.418 E8.18283
G1 X87.425 Y87.369 E8.18473
G1 X93.314 Y87.410 E8.34633
G1 X93.404 Y87.513 E8.35008
G1 X93.404 Y91.324 E8.45465
G1 X92.640 Y91.859 E8.48025
G0 F9000 X92.346 Y91.073
;TYPE:SKIN
G1 F1200 X89.466 Y88.193 E8.59201
G0 F9000 X90.320 Y88.199
G1 F1200 X92.592 Y90.471 E8.68018
G0 F9000 X92.592 Y89.622
G1 F1200 X91.175 Y88.205 E8.73517
G0 F9000 X92.030 Y88.212
G1 F1200 X92.592 Y88.774 E8.75698
G0 F9000 X91.888 Y91.464
G1 F1200 X88.611 Y88.187 E8.88414
G0 F9000 X88.192 Y88.616
G1 F1200 X91.464 Y91.888 E9.01112
G0 F9000 X91.073 Y92.346
G1 F1200 X88.198 Y89.471 E9.12269
G0 F9000 X88.205 Y90.326
G1 F1200 X90.477 Y92.598 E9.21085
G0 F9000 X89.626 Y92.596
G1 F1200 X88.211 Y91.181 E9.26576
G0 F9000 X88.218 Y92.037
G1 F1200 X88.775 Y92.594 E9.28738
G1 F2700 E4.78738
G0 F9000 X108.167 Y91.024
;TYPE:WALL-INNER
G1 F2700 E9.28738
G1 F1200 X108.165 Y87.985 E9.37077
G1 X112.999 Y87.983 E9.50342
G1 X112.999 Y92.832 E9.63647
G1 X109.979 Y92.837 E9.71934
G1 X109.590 Y92.281 E9.73796
G1 X108.723 Y91.414 E9.77161
G1 X108.167 Y91.024 E9.79024
G0 F9000 X108.336 Y91.875
;TYPE:WALL-OUTER
G1 F1200 X107.566 Y91.336 E9.81603
G1 X107.565 Y87.511 E9.92099
G1 X107.671 Y87.388 E9.92545
G1 X108.367 Y87.384 E9.94455
G1 X113.564 Y87.383 E10.08715
G1 X113.603 Y87.422 E10.08867
G1 X113.599 Y88.022 E10.10513
G1 X113.599 Y93.327 E10.25070
G1 X113.479 Y93.431 E10.25506
G1 X109.667 Y93.438 E10.35966
G1 X109.129 Y92.668 E10.38544
G1 X108.336 Y91.875 E10.41621
G0 F9000 X108.565 Y91.550
G0 X108.375 Y90.132
;TYPE:SKIN
G1 F1200 X110.868 Y92.625 E10.51295
G0 F9000 X111.715 Y92.623
G1 F1200 X108.374 Y89.282 E10.64261
G0 F9000 X108.374 Y88.433
G1 F1200 X112.562 Y92.621 E10.80513
G0 F9000 X112.788 Y91.999
G1 F1200 X108.983 Y88.194 E10.95278
G0 F9000 X109.832 Y88.194
G1 F1200 X112.788 Y91.151 E11.06752
G0 F9000 X112.788 Y90.302
G1 F1200 X110.679 Y88.193 E11.14936
G0 F9000 X111.528 Y88.193
G1 F1200 X112.788 Y89.453 E11.19825
G0 F9000 X112.788 Y88.605
G1 F1200 X112.376 Y88.193 E11.21424
G1 F2700 E6.71424
G0 F9000 X112.983 Y108.164
;TYPE:WALL-INNER
G1 F2700 E11.21424
G1 F1200 X112.803 Y112.799 E11.34152
G1 X108.155 Y112.980 E11.46916
G1 X108.155 Y109.985 E11.55135
G1 X108.714 Y109.594 E11.57006
G1 X109.583 Y108.725 E11.60379
G1 X109.974 Y108.166 E11.62251
G1 X112.983 Y108.164 E11.70507
G0 F9000 X113.478 Y107.563
;TYPE:WALL-OUTER
G1 F1200 X113.602 Y107.670 E11.70957
G1 X113.381 Y113.376 E11.86626
G1 X107.662 Y113.599 E12.02331
G1 X107.555 Y113.475 E12.02780
G1 X107.555 Y109.673 E12.13213
G1 X108.327 Y109.133 E12.15798
G1 X109.122 Y108.338 E12.18883
G1 X109.663 Y107.565 E12.21472
G1 X113.478 Y107.563 E12.31941
G0 F9000 X113.285 Y107.964
G0 X112.193 Y108.374
;TYPE:SKIN
G1 F1200 X112.742 Y108.924 E12.34073
G0 F9000 X112.711 Y109.741
G1 F1200 X111.345 Y108.375 E12.39374
G0 F9000 X110.497 Y108.376
G1 F1200 X112.679 Y110.558 E12.47842
G0 F9000 X112.647 Y111.374
G1 F1200 X109.904 Y108.631 E12.58486
G0 F9000 X109.514 Y109.090
G1 F1200 X112.616 Y112.192 E12.70524
G0 F9000 X112.188 Y112.613
G1 F1200 X109.090 Y109.514 E12.82548
G0 F9000 X108.634 Y109.907
G1 F1200 X111.372 Y112.644 E12.93171
G0 F9000 X110.555 Y112.676
G1 F1200 X108.364 Y110.486 E13.01672
G0 F9000 X108.364 Y111.334
G1 F1200 X109.738 Y112.707 E13.07002
G0 F9000 X108.921 Y112.739
G1 F1200 X108.364 Y112.183 E13.09161
G1 F2700 E8.59161
G0 F9000 X92.847 Y113.011
;TYPE:WALL-INNER
G1 F2700 E13.09161
G1 F1200 X88.830 Y113.040 E13.20184
G1 X87.951 Y113.042 E13.22596
G1 X87.983 Y108.382 E13.35384
G1 X87.983 Y108.154 E13.36009
G1 X91.024 Y108.157 E13.44354
G1 X91.417 Y108.719 E13.46236
G1 X92.287 Y109.589 E13.49612
G1 X92.846 Y109.981 E13.51485
G1 X92.847 Y113.011 E13.59800
G0 F9000 X93.447 Y113.475
;TYPE:WALL-OUTER
G1 F1200 X93.333 Y113.608 E13.60280
G1 X88.834 Y113.640 E13.72626
G1 X87.415 Y113.644 E13.76520
G1 X87.347 Y113.576 E13.76784
G1 X87.383 Y108.379 E13.91045
G1 X87.384 Y107.665 E13.93004
G1 X87.514 Y107.553 E13.93475
G1 X91.336 Y107.558 E14.03962
G1 X91.878 Y108.332 E14.06555
G1 X92.674 Y109.128 E14.09644
G1 X93.446 Y109.669 E14.12231
G1 X93.447 Y113.475 E14.22675
G0 F9000 X92.637 Y112.577
;TYPE:SKIN
G1 F1200 X88.423 Y108.364 E14.39026
G0 F9000 X88.188 Y108.977
G1 F1200 X92.015 Y112.804 E14.53877
G0 F9000 X91.173 Y112.811
G1 F1200 X88.183 Y109.820 E14.65482
G0 F9000 X88.176 Y110.662
G1 F1200 X90.330 Y112.816 E14.73841
G0 F9000 X89.487 Y112.822
G1 F1200 X88.171 Y111.505 E14.78950
G0 F9000 X88.164 Y112.347
G1 F1200 X88.645 Y112.828 E14.80816
G0 F9000 X92.637 Y111.729
G1 F1200 X89.272 Y108.364 E14.93875
G0 F9000 X90.122 Y108.365
G1 F1200 X92.636 Y110.880 E15.03632
;LAYER:1
M106 S127
G1 F2700 E10.53632
G0 F9000 X91.214 Y93.223 Z0.400
;TYPE:WALL-INNER
G1 F2700 E15.03632
G1 F1620 X87.664 Y93.214 E15.05797
G1 X87.617 Y93.173 E15.05835
G1 X87.577 Y87.570 E15.09252
G1 X93.178 Y87.609 E15.12667
G1 X93.216 Y87.653 E15.12703
G1 X93.216 Y91.221 E15.14878
G1 X92.536 Y91.698 E15.15385
G1 X91.690 Y92.543 E15.16114
G1 X91.214 Y93.223 E15.16620
G0 F9000 X91.997 Y92.801
;TYPE:WALL-OUTER
G1 F1620 X91.421 Y93.624 E15.17233
G1 X87.512 Y93.614 E15.19616
G1 X87.218 Y93.356 E15.19855
G1 X87.176 Y87.376 E15.23502
G1 X87.383 Y87.169 E15.23680
G1 X93.359 Y87.210 E15.27324
G1 X93.616 Y87.502 E15.27561
G1 X93.616 Y91.429 E15.29956
G1 X92.794 Y92.005 E15.30568
G1 X91.997 Y92.801 E15.31255
G0 F9000 X91.356 Y92.773
;TYPE:SKIN
G1 F1620 X91.047 Y93.082 E15.31521
G0 F9000 X90.483 Y93.081
G1 F1620 X93.075 Y90.489 E15.33757
G0 F9000 X93.075 Y89.924
G1 F1620 X89.919 Y93.080 E15.36478
G0 F9000 X89.354 Y93.078
G1 F1620 X93.075 Y89.358 E15.39687
G0 F9000 X93.075 Y88.792
G1 F1620 X88.791 Y93.076 E15.43381
G0 F9000 X88.227 Y93.075
G1 F1620 X93.075 Y88.227 E15.47562
G0 F9000 X92.989 Y87.747
G1 F1620 X87.756 Y92.980 E15.52075
G0 F9000 X87.751 Y92.418
G1 F1620 X92.428 Y87.742 E15.56107
G0 F9000 X91.865 Y87.739
G1 F1620 X87.747 Y91.857 E15.59659
G0 F9000 X87.743 Y91.295
G1 F1620 X91.303 Y87.735 E15.62729
G0 F9000 X90.742 Y87.731
G1 F1620 X87.739 Y90.733 E15.65318
G0 F9000 X87.735 Y90.172
G1 F1620 X90.180 Y87.727 E15.67426
G0 F9000 X89.618 Y87.724
G1 F1620 X87.731 Y89.610 E15.69053
G0 F9000 X87.727 Y89.049
G1 F1620 X89.056 Y87.720 E15.70199
G0 F9000 X88.494 Y87.716
G1 F1620 X87.722 Y88.488 E15.70865
G0 F9000 X87.719 Y87.925
G1 F1620 X87.932 Y87.713 E15.71048
G0 F9000 X92.763 Y91.366
G1 F1620 X93.075 Y91.055 E15.71317
G1 F2700 E11.21317
G0 F9000 X107.756 Y90.827
;TYPE:WALL-INNER
G1 F2700 E15.71317
G1 F1620 X107.754 Y87.649 E15.73255
G1 X107.808 Y87.587 E15.73305
G1 X108.713 Y87.581 E15.73857
G1 X113.404 Y87.581 E15.76717
G1 X113.399 Y88.362 E15.77193
G1 X113.399 Y93.189 E15.80137
G1 X113.338 Y93.242 E15.80186
G1 X109.771 Y93.248 E15.82361
G1 X109.291 Y92.563 E15.82871
G1 X108.441 Y91.714 E15.83604
G1 X107.755 Y91.234 E15.84114
G1 X107.756 Y90.827 E15.84363
G0 F9000 X108.183 Y92.021
;TYPE:WALL-OUTER
G1 F1620 X107.355 Y91.441 E15.84979
G1 X107.354 Y87.500 E15.87382
G1 X107.625 Y87.188 E15.87634
G1 X108.710 Y87.181 E15.88296
G1 X113.607 Y87.181 E15.91282
G1 X113.805 Y87.381 E15.91454
G1 X113.799 Y88.363 E15.92052
G1 X113.799 Y93.372 E15.95107
G1 X113.488 Y93.642 E15.95358
G1 X109.563 Y93.649 E15.97751
G1 X108.984 Y92.821 E15.98367
G1 X108.183 Y92.021 E15.99058
G0 F9000 X108.431 Y91.537
;TYPE:SKIN
G1 F1620 X112.247 Y87.722 E16.02348
G0 F9000 X111.681 Y87.722
G1 F1620 X108.099 Y91.304 E16.05437
G0 F9000 X107.894 Y90.943
G1 F1620 X111.115 Y87.722 E16.08215
G0 F9000 X110.549 Y87.723
G1 F1620 X107.894 Y90.378 E16.10504
G0 F9000 X107.894 Y89.812
G1 F1620 X109.982 Y87.724 E16.12305
G0 F9000 X109.416 Y87.725
G1 F1620 X107.893 Y89.247 E16.13618
G0 F9000 X107.893 Y88.681
G1 F1620 X108.850 Y87.725 E16.14443
G0 F9000 X108.284 Y87.725
G1 F1620 X107.893 Y88.116 E16.14780
G0 F9000 X108.730 Y91.805
G1 F1620 X112.813 Y87.721 E16.18301
G0 F9000 X113.261 Y87.839
G1 F1620 X109.013 Y92.087 E16.21965
G0 F9000 X109.296 Y92.370
G1 F1620 X113.261 Y88.405 E16.25384
G0 F9000 X113.260 Y88.971
G1 F1620 X109.547 Y92.684 E16.28586
G0 F9000 X109.781 Y93.017
G1 F1620 X113.260 Y89.537 E16.31586
G0 F9000 X113.260 Y90.103
G1 F1620 X110.256 Y93.107 E16.34177
G0 F9000 X110.823 Y93.106
G1 F1620 X113.260 Y90.669 E16.36279
G0 F9000 X113.259 Y91.235
G1 F1620 X111.389 Y93.105 E16.37891
G0 F9000 X111.956 Y93.104
G1 F1620 X113.259 Y91.801 E16.39015
G0 F9000 X113.258 Y92.367
G1 F1620 X112.523 Y93.103 E16.39649
G0 F9000 X113.089 Y93.102
G1 F1620 X113.258 Y92.933 E16.39795
G1 F2700 E11.89795
G0 F9000 X113.339 Y107.753
;TYPE:WALL-INNER
G1 F2700 E16.39795
G1 F1620 X113.397 Y107.803 E16.39841
G1 X113.195 Y113.034 E16.43034
G1 X113.196 Y113.191 E16.43129
G1 X113.038 Y113.190 E16.43226
G1 X107.795 Y113.394 E16.46425
G1 X107.745 Y113.336 E16.46472
G1 X107.745 Y109.777 E16.48642
G1 X108.433 Y109.295 E16.49154
G1 X109.284 Y108.444 E16.49888
G1 X109.766 Y107.755 E16.50401
G1 X110.180 Y107.756 E16.50653
G1 X113.339 Y107.753 E16.52580
G0 F9000 X113.488 Y107.353
;TYPE:WALL-OUTER
G1 F1620 X113.804 Y107.626 E16.52834
G1 X113.595 Y113.041 E16.56139
G1 X113.598 Y113.540 E16.56443
G1 X113.545 Y113.593 E16.56489
G1 X113.045 Y113.590 E16.56794
G1 X107.618 Y113.801 E16.60105
G1 X107.345 Y113.484 E16.60361
G1 X107.345 Y109.569 E16.62748
G1 X108.175 Y108.988 E16.63366
G1 X108.977 Y108.186 E16.64057
G1 X109.559 Y107.355 E16.64676
G1 X113.488 Y107.353 E16.67072
G0 F9000 X113.007 Y107.892
;TYPE:SKIN
G1 F1620 X107.885 Y113.014 E16.71489
G0 F9000 X108.229 Y113.236
G1 F1620 X113.238 Y108.226 E16.75809
G0 F9000 X113.216 Y108.815
G1 F1620 X108.818 Y113.213 E16.79601
G0 F9000 X109.406 Y113.190
G1 F1620 X113.193 Y109.403 E16.82867
G0 F9000 X113.171 Y109.991
G1 F1620 X109.994 Y113.168 E16.85607
G0 F9000 X110.583 Y113.144
G1 F1620 X113.149 Y110.579 E16.87819
G0 F9000 X113.126 Y111.167
G1 F1620 X111.172 Y113.122 E16.89505
G0 F9000 X111.760 Y113.099
G1 F1620 X113.103 Y111.756 E16.90663
G0 F9000 X113.081 Y112.344
G1 F1620 X112.349 Y113.076 E16.91294
G0 F9000 X112.937 Y113.053
G1 F1620 X113.058 Y112.932 E16.91399
G0 F9000 X112.441 Y107.892
G1 F1620 X107.885 Y112.449 E16.95328
G0 F9000 X107.885 Y111.883
G1 F1620 X111.875 Y107.893 E16.98769
G0 F9000 X111.309 Y107.893
G1 F1620 X107.885 Y111.317 E17.01721
G0 F9000 X107.885 Y110.752
G1 F1620 X110.743 Y107.893 E17.04187
G0 F9000 X110.177 Y107.893
G1 F1620 X107.885 Y110.186 E17.06163
G1 F2700 E12.56163
G0 F9000 X93.256 Y109.773
;TYPE:WALL-INNER
G1 F2700 E17.06163
G1 F1620 X93.257 Y113.337 E17.08337
G1 X93.195 Y113.409 E17.08395
G1 X89.450 Y113.435 E17.10678
G1 X87.551 Y113.440 E17.11836
G1 X87.583 Y108.720 E17.14715
G1 X87.584 Y107.803 E17.15274
G1 X87.653 Y107.743 E17.15330
G1 X91.232 Y107.748 E17.17512
G1 X91.716 Y108.438 E17.18026
G1 X92.568 Y109.290 E17.18761
G1 X93.256 Y109.773 E17.19273
G0 F9000 X92.826 Y108.983
;TYPE:WALL-OUTER
G1 F1620 X93.656 Y109.565 E17.19891
G1 X93.657 Y113.485 E17.22282
G1 X93.380 Y113.808 E17.22541
G1 X87.374 Y113.841 E17.26204
G1 X87.150 Y113.617 E17.26397
G1 X87.183 Y108.719 E17.29383
G1 X87.184 Y107.619 E17.30054
G1 X87.505 Y107.343 E17.30312
G1 X91.440 Y107.348 E17.32712
G1 X92.023 Y108.180 E17.33331
G1 X92.826 Y108.983 E17.34024
G0 F9000 X92.373 Y109.293
;TYPE:SKIN
G1 F1620 X88.372 Y113.294 E17.37474
G0 F9000 X88.940 Y113.291
G1 F1620 X92.688 Y109.544 E17.40706
G0 F9000 X93.020 Y109.777
G1 F1620 X89.509 Y113.289 E17.43734
G0 F9000 X90.078 Y113.285
G1 F1620 X93.116 Y110.247 E17.46354
G0 F9000 X93.116 Y110.813
G1 F1620 X90.646 Y113.282 E17.48484
G0 F9000 X91.215 Y113.279
G1 F1620 X93.116 Y111.379 E17.50122
G0 F9000 X93.116 Y111.944
G1 F1620 X91.783 Y113.277 E17.51272
G0 F9000 X92.353 Y113.273
G1 F1620 X93.116 Y112.510 E17.51930
G0 F9000 X93.116 Y113.076
G1 F1620 X92.921 Y113.270 E17.52098
G0 F9000 X92.090 Y109.010
G1 F1620 X87.802 Y113.298 E17.55795
G0 F9000 X87.695 Y112.840
G1 F1620 X91.807 Y108.727 E17.59342
G0 F9000 X91.539 Y108.430
G1 F1620 X87.698 Y112.270 E17.62654
G0 F9000 X87.702 Y111.701
G1 F1620 X91.305 Y108.098 E17.65761
G0 F9000 X90.951 Y107.886
G1 F1620 X87.705 Y111.133 E17.68561
G0 F9000 X87.708 Y110.563
G1 F1620 X90.386 Y107.886 E17.70870
G0 F9000 X89.821 Y107.885
G1 F1620 X87.712 Y109.994 E17.72688
G0 F9000 X87.715 Y109.425
G1 F1620 X89.256 Y107.884 E17.74017
G0 F9000 X88.692 Y107.883
G1 F1620 X87.718 Y108.856 E17.74857
G0 F9000 X87.722 Y108.287
G1 F1620 X88.127 Y107.882 E17.75206
;LAYER:2
M106 S255
G1 F2700 E13.25206
G0 F9000 X87.691 Y93.326 Z0.500
;TYPE:WALL-INNER
G1 F2700 E17.75206
G1 F2100 X87.517 Y93.174 E17.75347
G1 X87.477 Y87.541 E17.78782
G1 X87.548 Y87.470 E17.78843
G1 X93.177 Y87.509 E17.82276
G1 X93.329 Y87.682 E17.82416
G1 X93.329 Y91.273 E17.84606
G1 X92.625 Y91.767 E17.85130
G1 X91.759 Y92.633 E17.85877
G1 X91.266 Y93.336 E17.86401
G1 X90.683 Y93.333 E17.86756
G1 X87.691 Y93.326 E17.88581
G0 F9000 X87.539 Y93.726
;TYPE:WALL-OUTER
G1 F2100 X87.118 Y93.356 E17.88922
G1 X87.076 Y87.376 E17.92569
G1 X87.383 Y87.069 E17.92834
G1 X93.359 Y87.110 E17.96478
G1 X93.729 Y87.530 E17.96819
G1 X93.729 Y91.482 E17.99229
G1 X92.883 Y92.074 E17.99859
G1 X92.066 Y92.891 E18.00563
G1 X91.474 Y93.737 E18.01193
G1 X87.539 Y93.726 E18.03592
G0 F9000 X87.811 Y93.185
;TYPE:SKIN
G1 F2100 X87.655 Y93.029 E18.03727
G0 F9000 X87.650 Y92.459
G1 F2100 X88.378 Y93.186 E18.04354
G0 F9000 X88.945 Y93.188
G1 F2100 X87.646 Y91.889 E18.05474
G0 F9000 X87.643 Y91.320
G1 F2100 X89.513 Y93.190 E18.07087
G0 F9000 X90.080 Y93.191
G1 F2100 X87.638 Y90.750 E18.09192
G0 F9000 X87.634 Y90.180
G1 F2100 X90.647 Y93.193 E18.11791
G0 F9000 X91.202 Y93.182
G1 F2100 X87.631 Y89.610 E18.14871
G0 F9000 X87.626 Y89.041
G1 F2100 X91.435 Y92.850 E18.18155
G0 F9000 X91.672 Y92.520
G1 F2100 X87.622 Y88.471 E18.21648
G0 F9000 X87.618 Y87.901
G1 F2100 X91.954 Y92.237 E18.25387
G0 F9000 X92.237 Y91.954
