;Generated with Cura_SteamEngine 15.04
M109 S210     ;Heatup to 210C
G21           ;metric values
G90           ;absolute positioning
G28           ;Home
G1 Z15.0 F300 ;move the platform down 15mm
G92 E0        ;zero the extruded length
G1 F200 E5    ;extrude 5mm of feed stock
G92 E0        ;zero the extruded length again

;Layer count: 98
;LAYER:0
M107
G0 F9000 X91.200 Y91.200 Z0.300
;TYPE:SKIRT
G1 F1200 X113.800 Y91.200 E0.62015
G1 X113.800 Y113.800 E1.24030
G1 X91.200 Y113.800 E1.86044
G1 X91.200 Y91.200 E2.48059
G1 F2700 E-2.01941
G0 F9000 X98.400 Y98.400
;TYPE:WALL-INNER
G1 F2700 E2.48059
G1 F1200 X106.600 Y98.400 E2.70560
G1 X106.600 Y106.600 E2.93061
G1 X98.400 Y106.600 E3.15562
G1 X98.400 Y98.400 E3.38063
G0 F9000 X99.799 Y101.200
G1 F1200 X99.799 Y103.800 E3.45197
G1 X101.449 Y105.116 E3.50989
G1 X101.824 Y105.425 E3.52322
G1 X103.905 Y104.950 E3.58179
G1 X104.369 Y104.842 E3.59487
G1 X105.293 Y102.929 E3.65316
G1 X105.498 Y102.497 E3.66628
G1 X104.368 Y100.156 E3.73761
G1 X101.833 Y99.577 E3.80896
G1 X99.799 Y101.200 E3.88037
G0 F9000 X100.399 Y101.489
;TYPE:WALL-OUTER
G1 F1200 X100.399 Y103.511 E3.93585
G1 X101.830 Y104.653 E3.98609
G1 X101.978 Y104.774 E3.99134
G1 X103.770 Y104.365 E4.04177
G1 X103.954 Y104.323 E4.04695
G1 X104.752 Y102.670 E4.09732
G1 X104.833 Y102.499 E4.10251
G1 X103.953 Y100.677 E4.15803
G1 X101.981 Y100.226 E4.21354
G1 X100.399 Y101.489 E4.26909
G0 F9000 X99.999 Y101.489
G0 X98.200 Y98.110
G0 X97.800 Y97.800
G1 F1200 X107.200 Y97.800 E4.52703
G1 X107.200 Y107.200 E4.78497
G1 X97.800 Y107.200 E5.04290
G1 X97.800 Y97.800 E5.30084
G0 F9000 X98.609 Y99.033
;TYPE:SKIN
G1 F1200 X100.192 Y100.616 E5.36227
G0 F9000 X100.664 Y100.240
G1 F1200 X99.033 Y98.609 E5.42557
G0 F9000 X99.882 Y98.609
G1 F1200 X101.136 Y99.863 E5.47423
G0 F9000 X101.608 Y99.487
G1 F1200 X100.730 Y98.609 E5.50830
G0 F9000 X101.579 Y98.609
G1 F1200 X102.479 Y99.509 E5.54323
G0 F9000 X102.427 Y98.609
G1 F1200 X103.579 Y99.760 E5.58791
G0 F9000 X103.276 Y98.609
G1 F1200 X106.389 Y101.722 E5.70871
G0 F9000 X106.389 Y100.874
G1 F1200 X104.125 Y98.609 E5.79659
G0 F9000 X104.973 Y98.609
G1 F1200 X106.389 Y100.025 E5.85154
G0 F9000 X105.184 Y101.365
G1 F1200 X106.389 Y102.571 E5.89832
G0 F9000 X105.643 Y102.674
G1 F1200 X106.389 Y103.420 E5.92727
G0 F9000 X106.389 Y104.268
G1 F1200 X105.368 Y103.247 E5.96689
G0 F9000 X105.093 Y103.820
G1 F1200 X106.389 Y105.117 E6.01721
G0 F9000 X106.389 Y105.965
G1 F1200 X104.817 Y104.393 E6.07821
G0 F9000 X104.542 Y104.966
G1 F1200 X105.964 Y106.389 E6.13341
G0 F9000 X105.116 Y106.389
G1 F1200 X103.893 Y105.165 E6.18089
G0 F9000 X103.202 Y105.323
G1 F1200 X104.267 Y106.389 E6.22224
G0 F9000 X103.419 Y106.389
G1 F1200 X102.512 Y105.481 E6.25746
G0 F9000 X101.821 Y105.639
G1 F1200 X102.570 Y106.389 E6.28654
G0 F9000 X101.722 Y106.389
G1 F1200 X98.609 Y103.276 E6.40734
G0 F9000 X98.609 Y104.125
G1 F1200 X100.873 Y106.389 E6.49520
G0 F9000 X100.025 Y106.389
G1 F1200 X98.609 Y104.973 E6.55015
G0 F9000 X98.609 Y105.822
G1 F1200 X99.176 Y106.389 E6.57215
G0 F9000 X99.588 Y103.407
G1 F1200 X98.609 Y102.427 E6.61017
G0 F9000 X98.609 Y101.579
G1 F1200 X99.588 Y102.558 E6.64816
G0 F9000 X99.588 Y101.710
G1 F1200 X98.609 Y100.730 E6.68617
G0 F9000 X98.609 Y99.882
G1 F1200 X99.719 Y100.992 E6.72924
G0 F9000 X101.863 Y99.707
G0 X105.822 Y98.609
G1 F1200 X106.389 Y99.177 E6.75126
;LAYER:1
M106 S127
G0 F9000 X106.900 Y98.100 Z0.400
;TYPE:WALL-INNER
G1 F1620 X106.900 Y106.900 E6.80493
G1 X98.100 Y106.900 E6.85859
G1 X98.100 Y98.100 E6.91225
G1 X106.900 Y98.100 E6.96591
G0 F9000 X104.161 Y100.416
G1 F1620 X101.907 Y99.902 E6.98001
G1 X100.099 Y101.344 E6.99411
G1 X100.099 Y103.656 E7.00821
G1 X101.634 Y104.881 E7.02018
G1 X101.908 Y105.098 E7.02231
G1 X103.821 Y104.662 E7.03428
G1 X104.162 Y104.582 E7.03641
G1 X105.012 Y102.819 E7.04835
G1 X105.167 Y102.502 E7.05050
G1 X104.161 Y100.416 E7.06462
G0 F9000 X103.884 Y100.763
;TYPE:WALL-OUTER
G1 F1620 X102.006 Y100.335 E7.07637
G1 X100.499 Y101.537 E7.08812
G1 X100.499 Y103.463 E7.09987
G1 X102.006 Y104.665 E7.11162
G1 X103.884 Y104.237 E7.12336
G1 X104.653 Y102.643 E7.13416
G1 X104.722 Y102.501 E7.13512
G1 X103.884 Y100.763 E7.14689
G0 F9000 X103.951 Y100.472
G0 X107.000 Y97.910
G0 X107.300 Y97.700
G1 F1620 X107.300 Y107.300 E7.20542
G1 X97.700 Y107.300 E7.26396
G1 X97.700 Y97.700 E7.32250
G1 X107.300 Y97.700 E7.38104
G0 F9000 X106.758 Y98.301
;TYPE:SKIN
G1 F1620 X104.423 Y100.637 E7.40118
G0 F9000 X104.210 Y100.284
G1 F1620 X106.255 Y98.239 E7.41882
G0 F9000 X105.689 Y98.239
G1 F1620 X103.750 Y100.179 E7.43554
G0 F9000 X103.289 Y100.074
G1 F1620 X105.124 Y98.239 E7.45137
G0 F9000 X104.558 Y98.239
G1 F1620 X102.828 Y99.969 E7.46629
G0 F9000 X102.367 Y99.864
G1 F1620 X103.992 Y98.239 E7.48030
G0 F9000 X103.427 Y98.239
G1 F1620 X101.907 Y99.759 E7.49341
G0 F9000 X101.730 Y98.239
G1 F1620 X98.239 Y101.730 E7.52351
G0 F9000 X98.239 Y102.295
G1 F1620 X102.295 Y98.239 E7.55849
G0 F9000 X102.861 Y98.239
G1 F1620 X98.239 Y102.861 E7.59835
G0 F9000 X98.239 Y103.427
G1 F1620 X99.958 Y101.708 E7.61317
G0 F9000 X99.958 Y102.273
G1 F1620 X98.239 Y103.992 E7.62800
G0 F9000 X98.239 Y104.558
G1 F1620 X99.958 Y102.839 E7.64282
G0 F9000 X99.958 Y103.405
G1 F1620 X98.239 Y105.124 E7.65764
G0 F9000 X98.239 Y105.689
G1 F1620 X100.097 Y103.832 E7.67366
G0 F9000 X100.411 Y104.083
G1 F1620 X98.239 Y106.255 E7.69239
G0 F9000 X98.301 Y106.759
G1 F1620 X100.726 Y104.334 E7.71330
G0 F9000 X101.041 Y104.585
G1 F1620 X98.866 Y106.759 E7.73206
G0 F9000 X99.432 Y106.759
G1 F1620 X101.356 Y104.835 E7.74865
G0 F9000 X101.671 Y105.086
G1 F1620 X99.998 Y106.759 E7.76308
G0 F9000 X98.239 Y101.164
G1 F1620 X101.164 Y98.239 E7.78830
G0 F9000 X100.598 Y98.239
G1 F1620 X98.239 Y100.598 E7.80864
G0 F9000 X98.239 Y100.032
G1 F1620 X100.032 Y98.239 E7.82411
G0 F9000 X104.147 Y100.434
G0 X104.607 Y101.019
G1 F1620 X106.758 Y98.867 E7.84266
G0 F9000 X106.758 Y99.433
G1 F1620 X104.791 Y101.401 E7.85963
G0 F9000 X104.974 Y101.783
G1 F1620 X106.758 Y99.999 E7.87501
G0 F9000 X106.758 Y100.564
G1 F1620 X105.158 Y102.164 E7.88881
G0 F9000 X105.261 Y102.628
G1 F1620 X106.758 Y101.130 E7.90172
G0 F9000 X106.758 Y101.696
G1 F1620 X104.733 Y103.721 E7.91919
G0 F9000 X103.603 Y104.851
G1 F1620 X101.695 Y106.759 E7.93564
G0 F9000 X102.261 Y106.759
G1 F1620 X106.758 Y102.261 E7.97442
G0 F9000 X106.758 Y102.827
G1 F1620 X102.826 Y106.759 E8.00833
G0 F9000 X103.392 Y106.759
G1 F1620 X106.758 Y103.393 E8.03736
G0 F9000 X106.758 Y103.958
G1 F1620 X103.958 Y106.759 E8.06151
G0 F9000 X104.523 Y106.759
G1 F1620 X106.758 Y104.524 E8.08078
G0 F9000 X106.758 Y105.090
G1 F1620 X105.089 Y106.759 E8.09518
G0 F9000 X105.655 Y106.759
G1 F1620 X106.758 Y105.655 E8.10469
G0 F9000 X106.758 Y106.221
G1 F1620 X106.220 Y106.759 E8.10933
G0 F9000 X102.869 Y105.019
G1 F1620 X101.129 Y106.759 E8.12434
G0 F9000 X100.564 Y106.759
G1 F1620 X102.135 Y105.187 E8.13789
G0 F9000 X100.119 Y103.646
G0 X98.239 Y99.467
G1 F1620 X99.467 Y98.239 E8.14848
G0 F9000 X98.901 Y98.239
G1 F1620 X98.239 Y98.901 E8.15419
G0 F9000 X98.239 Y98.335
G1 F1620 X98.335 Y98.239 E8.15502
;LAYER:2
M106 S255
G0 F9000 X98.100 Y98.100 Z0.500
;TYPE:WALL-INNER
G1 F2100 X106.900 Y98.100 E8.20868
G1 X106.900 Y106.900 E8.26234
G1 X98.100 Y106.900 E8.31600
G1 X98.100 Y98.100 E8.36966
G0 F9000 X100.099 Y101.344
G1 F2100 X100.099 Y103.656 E8.38376
G1 X101.620 Y104.870 E8.39562
G1 X101.908 Y105.098 E8.39786
G1 X103.804 Y104.666 E8.40972
G1 X104.162 Y104.582 E8.41196
G1 X105.007 Y102.831 E8.42382
G1 X105.166 Y102.499 E8.42606
G1 X104.161 Y100.416 E8.44017
G1 X101.907 Y99.902 E8.45426
G1 X100.099 Y101.344 E8.46837
G0 F9000 X100.499 Y101.537
;TYPE:WALL-OUTER
G1 F2100 X100.499 Y103.463 E8.48011
G1 X102.006 Y104.665 E8.49186
G1 X103.714 Y104.276 E8.50255
G1 X103.885 Y104.236 E8.50362
G1 X104.722 Y102.500 E8.51537
G1 X103.884 Y100.763 E8.52713
G1 X102.006 Y100.335 E8.53887
G1 X100.499 Y101.537 E8.55063
G0 F9000 X100.199 Y101.537
G0 X98.000 Y97.910
G0 X97.700 Y97.700
G1 F2100 X107.300 Y97.700 E8.60917
G1 X107.300 Y107.300 E8.66771
G1 X97.700 Y107.300 E8.72625
G1 X97.700 Y97.700 E8.78479
G0 F9000 X98.239 Y98.522
;TYPE:SKIN
G1 F2100 X100.534 Y100.817 E8.80458
G0 F9000 X100.848 Y100.566
G1 F2100 X98.522 Y98.239 E8.82464
G0 F9000 X99.088 Y98.239
G1 F2100 X101.163 Y100.315 E8.84254
G0 F9000 X101.477 Y100.063
G1 F2100 X99.653 Y98.239 E8.85827
G0 F9000 X98.239 Y99.088
G1 F2100 X100.219 Y101.068 E8.87534
G0 F9000 X98.239 Y102.482
G1 F2100 X102.516 Y106.758 E8.91222
G0 F9000 X101.950 Y106.758
G1 F2100 X98.239 Y103.048 E8.94422
G0 F9000 X98.239 Y103.613
G1 F2100 X101.384 Y106.758 E8.97134
G0 F9000 X100.819 Y106.758
G1 F2100 X98.239 Y104.179 E8.99358
G0 F9000 X98.239 Y104.745
G1 F2100 X100.253 Y106.758 E9.01095
G0 F9000 X102.088 Y105.199
G1 F2100 X103.647 Y106.758 E9.02439
G0 F9000 X103.082 Y106.758
G1 F2100 X100.385 Y104.062 E9.04765
G0 F9000 X101.913 Y105.077
G0 X102.548 Y105.094
G1 F2100 X104.213 Y106.758 E9.06200
G0 F9000 X104.779 Y106.758
G1 F2100 X103.008 Y104.988 E9.07727
G0 F9000 X103.468 Y104.883
G1 F2100 X105.344 Y106.758 E9.09344
G0 F9000 X105.910 Y106.758
G1 F2100 X103.929 Y104.777 E9.11053
G0 F9000 X104.310 Y104.593
G1 F2100 X106.476 Y106.758 E9.12920
G0 F9000 X106.759 Y106.476
G1 F2100 X104.494 Y104.211 E9.14873
G0 F9000 X104.678 Y103.830
G1 F2100 X106.759 Y105.911 E9.16668
G0 F9000 X106.759 Y105.345
G1 F2100 X104.862 Y103.448 E9.18304
G0 F9000 X105.046 Y103.066
G1 F2100 X106.759 Y104.779 E9.19781
G0 F9000 X106.759 Y104.214
G1 F2100 X105.230 Y102.684 E9.21100
G0 F9000 X105.049 Y101.938
G1 F2100 X106.759 Y103.648 E9.22575
G0 F9000 X106.759 Y103.082
G1 F2100 X104.523 Y100.846 E9.24503
G0 F9000 X103.886 Y100.209
G1 F2100 X101.916 Y98.239 E9.26202
G0 F9000 X101.351 Y98.239
G1 F2100 X103.154 Y100.042 E9.27756
G0 F9000 X103.048 Y98.239
G1 F2100 X106.759 Y101.951 E9.30957
G0 F9000 X106.759 Y102.517
G1 F2100 X102.482 Y98.239 E9.34646
G0 F9000 X103.613 Y98.239
G1 F2100 X106.759 Y101.385 E9.37359
G0 F9000 X106.759 Y100.819
G1 F2100 X104.179 Y98.239 E9.39584
G0 F9000 X104.745 Y98.239
G1 F2100 X106.759 Y100.254 E9.41321
G0 F9000 X106.759 Y99.688
G1 F2100 X105.310 Y98.239 E9.42571
G0 F9000 X105.876 Y98.239
G1 F2100 X106.759 Y99.122 E9.43332
G0 F9000 X106.759 Y98.557
G1 F2100 X106.442 Y98.239 E9.43606
G0 F9000 X102.421 Y99.876
G1 F2100 X100.785 Y98.239 E9.45017
G0 F9000 X100.219 Y98.239
G1 F2100 X101.792 Y99.812 E9.46374
G0 F9000 X99.959 Y101.373
G1 F2100 X98.239 Y99.653 E9.47857
G0 F9000 X98.239 Y100.219
G1 F2100 X99.959 Y101.939 E9.49340
G0 F9000 X99.959 Y102.505
G1 F2100 X98.239 Y100.785 E9.50823
G0 F9000 X98.239 Y101.351
G1 F2100 X99.959 Y103.070 E9.52306
G0 F9000 X99.959 Y103.636
G1 F2100 X98.239 Y101.916 E9.53789
G0 F9000 X98.239 Y105.310
G1 F2100 X99.687 Y106.758 E9.55038
G0 F9000 X99.122 Y106.758
G1 F2100 X98.239 Y105.876 E9.55799
G0 F9000 X98.239 Y106.442
G1 F2100 X98.556 Y106.758 E9.56072
;LAYER:3
G0 F9000 X98.100 Y106.900 Z0.600
;TYPE:WALL-INNER
G1 F2520 X98.100 Y98.100 E9.61438
G1 X106.900 Y98.100 E9.66804
G1 X106.900 Y106.900 E9.72170
G1 X98.100 Y106.900 E9.77536
G0 F9000 X100.099 Y103.656
G1 F2520 X101.907 Y105.098 E9.78947
G1 X103.787 Y104.670 E9.80122
G1 X104.162 Y104.582 E9.80357
G1 X104.997 Y102.849 E9.81530
G1 X105.167 Y102.502 E9.81766
G1 X104.161 Y100.416 E9.83178
G1 X101.907 Y99.902 E9.84588
G1 X100.099 Y101.344 E9.85998
G1 X100.099 Y103.656 E9.87408
G0 F9000 X100.499 Y103.463
;TYPE:WALL-OUTER
G1 F2520 X102.006 Y104.665 E9.88583
G1 X103.697 Y104.280 E9.89641
G1 X103.885 Y104.236 E9.89759
G1 X104.638 Y102.674 E9.90816
G1 X104.722 Y102.501 E9.90933
G1 X103.884 Y100.763 E9.92110
G1 X102.006 Y100.335 E9.93284
G1 X100.499 Y101.537 E9.94460
G1 X100.499 Y103.463 E9.95634
G0 F9000 X100.199 Y103.463
G0 X97.910 Y107.000
G0 X97.700 Y107.300
G1 F2520 X97.700 Y97.700 E10.01488
G1 X107.300 Y97.700 E10.07342
G1 X107.300 Y107.300 E10.13196
G1 X97.700 Y107.300 E10.19050
G0 F9000 X98.301 Y106.759
;TYPE:SKIN
G1 F2520 X100.726 Y104.334 E10.21141
G0 F9000 X100.411 Y104.083
G1 F2520 X98.239 Y106.255 E10.23014
G0 F9000 X98.239 Y105.689
G1 F2520 X100.097 Y103.832 E10.24616
G0 F9000 X101.042 Y104.584
G1 F2520 X98.866 Y106.759 E10.26492
G0 F9000 X99.432 Y106.759
G1 F2520 X101.356 Y104.835 E10.28151
G0 F9000 X101.671 Y105.086
G1 F2520 X99.998 Y106.759 E10.29594
G0 F9000 X98.239 Y105.124
G1 F2520 X99.958 Y103.405 E10.31076
G0 F9000 X99.958 Y102.839
G1 F2520 X98.239 Y104.558 E10.32559
G0 F9000 X98.239 Y103.992
G1 F2520 X99.958 Y102.273 E10.34041
G0 F9000 X99.958 Y101.708
G1 F2520 X98.239 Y103.427 E10.35523
G0 F9000 X98.239 Y102.861
G1 F2520 X102.861 Y98.239 E10.39509
G0 F9000 X103.427 Y98.239
G1 F2520 X101.907 Y99.759 E10.40820
G0 F9000 X102.367 Y99.864
G1 F2520 X103.992 Y98.239 E10.42221
G0 F9000 X104.558 Y98.239
G1 F2520 X102.828 Y99.969 E10.43713
G0 F9000 X103.289 Y100.074
G1 F2520 X105.124 Y98.239 E10.45296
G0 F9000 X105.689 Y98.239
G1 F2520 X103.750 Y100.179 E10.46968
G0 F9000 X104.210 Y100.284
G1 F2520 X106.255 Y98.239 E10.48732
G0 F9000 X106.758 Y98.301
G1 F2520 X104.423 Y100.637 E10.50746
G0 F9000 X104.607 Y101.019
G1 F2520 X106.758 Y98.867 E10.52601
G0 F9000 X106.758 Y99.433
G1 F2520 X104.791 Y101.401 E10.54298
G0 F9000 X104.974 Y101.783
G1 F2520 X106.758 Y99.999 E10.55836
G0 F9000 X102.295 Y98.239
G1 F2520 X98.239 Y102.295 E10.59334
G0 F9000 X98.239 Y101.730
G1 F2520 X101.730 Y98.239 E10.62345
G0 F9000 X101.164 Y98.239
G1 F2520 X98.239 Y101.164 E10.64867
G0 F9000 X98.239 Y100.598
G1 F2520 X100.598 Y98.239 E10.66901
G0 F9000 X100.032 Y98.239
G1 F2520 X98.239 Y100.032 E10.68448
G0 F9000 X98.239 Y99.467
G1 F2520 X99.467 Y98.239 E10.69507
G0 F9000 X98.901 Y98.239
G1 F2520 X98.239 Y98.901 E10.70077
G0 F9000 X98.239 Y98.335
G1 F2520 X98.335 Y98.239 E10.70160
G0 F9000 X104.147 Y100.434
G0 X105.158 Y102.164
G1 F2520 X106.758 Y100.564 E10.71540
G0 F9000 X106.758 Y101.130
G1 F2520 X105.261 Y102.628 E10.72831
G0 F9000 X104.733 Y103.721
G1 F2520 X106.758 Y101.696 E10.74578
G0 F9000 X106.758 Y102.261
G1 F2520 X102.261 Y106.759 E10.78456
G0 F9000 X102.826 Y106.759
G1 F2520 X106.758 Y102.827 E10.81847
G0 F9000 X106.758 Y103.393
G1 F2520 X103.392 Y106.759 E10.84750
G0 F9000 X103.958 Y106.759
G1 F2520 X106.758 Y103.958 E10.87165
G0 F9000 X106.758 Y104.524
G1 F2520 X104.523 Y106.759 E10.89092
G0 F9000 X105.089 Y106.759
G1 F2520 X106.758 Y105.090 E10.90531
G0 F9000 X106.758 Y105.655
G1 F2520 X105.655 Y106.759 E10.91483
G0 F9000 X106.220 Y106.759
G1 F2520 X106.758 Y106.221 E10.91947
G0 F9000 X103.603 Y104.851
G1 F2520 X101.695 Y106.759 E10.93592
G0 F9000 X101.129 Y106.759
G1 F2520 X102.869 Y105.019 E10.95093
G0 F9000 X102.136 Y105.187
G1 F2520 X100.564 Y106.759 E10.96448
;LAYER:4
G0 F9000 X101.907 Y105.098 Z0.700
;TYPE:WALL-INNER
G1 F2940 X103.772 Y104.673 E10.97615
G1 X104.162 Y104.581 E10.97859
G1 X104.989 Y102.866 E10.99020
G1 X105.167 Y102.502 E10.99267
G1 X104.161 Y100.416 E11.00679
G1 X101.907 Y99.902 E11.02089
G1 X100.099 Y101.344 E11.03499
G1 X100.099 Y103.656 E11.04909
G1 X101.907 Y105.098 E11.06319
G0 F9000 X98.100 Y106.900
G1 F2940 X98.100 Y98.100 E11.11686
G1 X106.900 Y98.100 E11.17052
G1 X106.900 Y106.900 E11.22418
G1 X98.100 Y106.900 E11.27784
G0 F9000 X97.700 Y107.300
;TYPE:WALL-OUTER
G1 F2940 X97.700 Y97.700 E11.33638
G1 X107.300 Y97.700 E11.39492
G1 X107.300 Y107.300 E11.45345
G1 X97.700 Y107.300 E11.51199
G0 F9000 X97.910 Y107.000
G0 X100.199 Y103.463
G0 X100.499 Y103.463
G1 F2940 X102.006 Y104.665 E11.52375
G1 X103.681 Y104.284 E11.53422
G1 X103.885 Y104.236 E11.53550
G1 X104.630 Y102.690 E11.54597
G1 X104.722 Y102.501 E11.54725
G1 X103.884 Y100.763 E11.55901
G1 X102.006 Y100.335 E11.57076
G1 X100.499 Y101.537 E11.58251
G1 X100.499 Y103.463 E11.59426
G0 F9000 X100.385 Y104.062
;TYPE:SKIN
G1 F2940 X103.082 Y106.758 E11.61751
G0 F9000 X103.647 Y106.758
G1 F2940 X102.087 Y105.199 E11.63096
G0 F9000 X102.547 Y105.093
G1 F2940 X104.213 Y106.758 E11.64532
G0 F9000 X104.779 Y106.758
G1 F2940 X103.007 Y104.987 E11.66060
G0 F9000 X103.468 Y104.882
G1 F2940 X105.344 Y106.758 E11.67678
G0 F9000 X105.910 Y106.758
G1 F2940 X103.927 Y104.776 E11.69387
G0 F9000 X104.310 Y104.593
