;Generated with Cura_SteamEngine 15.04
M109 S210     ;Heatup to 210C
G21           ;metric values
G90           ;absolute positioning
G28           ;Home
G1 Z15.0 F300 ;move the platform down 15mm
G92 E0        ;zero the extruded length
G1 F200 E5    ;extrude 5mm of feed stock
G92 E0        ;zero the extruded length again

;Layer count: 133
;LAYER:0
M107
G0 F9000 X100.391 Y51.322 Z0.300
;TYPE:SKIRT
G1 F1200 X129.115 Y51.322 E0.78819
G1 X126.864 Y55.734 E0.92410
G1 X126.952 Y56.005 E0.93192
G1 X129.167 Y56.507 E0.99424
G1 X128.386 Y60.372 E1.10244
G1 X128.460 Y60.595 E1.10889
G1 X128.142 Y61.576 E1.13719
G1 X127.717 Y63.678 E1.19604
G1 X127.581 Y65.039 E1.23357
G1 X127.581 Y66.404 E1.27102
G1 X127.713 Y67.729 E1.30756
G1 X127.982 Y69.073 E1.34517
G1 X128.384 Y70.381 E1.38272
G1 X128.920 Y71.661 E1.42080
G1 X129.558 Y72.834 E1.45744
G1 X130.332 Y73.972 E1.49521
G1 X131.223 Y75.038 E1.53333
G1 X135.788 Y79.624 E1.71089
G1 X134.821 Y80.552 E1.74766
G1 X135.552 Y82.804 E1.81263
G1 X135.780 Y83.472 E1.83200
G1 X136.120 Y86.723 E1.92170
G1 X136.128 Y87.642 E1.94691
G1 X136.128 Y104.068 E2.39765
G1 X136.116 Y104.572 E2.41148
G1 X135.762 Y107.934 E2.50424
G1 X134.578 Y111.580 E2.60943
G1 X133.895 Y112.761 E2.64687
G1 X134.621 Y113.586 E2.67703
G1 X130.180 Y117.657 E2.84234
G1 X130.084 Y117.763 E2.84627
G1 X129.992 Y117.829 E2.84937
G1 X128.964 Y118.771 E2.88763
G1 X127.571 Y120.291 E2.94421
G1 X126.304 Y121.942 E3.00132
G1 X125.199 Y123.676 E3.05774
G1 X124.245 Y125.509 E3.11444
G1 X123.450 Y127.427 E3.17141
G1 X122.833 Y129.384 E3.22772
G1 X122.518 Y130.805 E3.26766
G1 X122.508 Y130.899 E3.27025
G1 X122.475 Y131.002 E3.27322
G1 X121.138 Y137.032 E3.44270
G1 X120.028 Y136.781 E3.47393
G1 X119.411 Y137.849 E3.50777
G1 X116.846 Y140.700 E3.61301
G1 X114.007 Y142.758 E3.70923
G1 X113.248 Y143.196 E3.73327
G1 X99.628 Y151.061 E4.16484
G1 X99.043 Y151.398 E4.18337
G1 X98.522 Y151.676 E4.19957
G1 X95.157 Y153.090 E4.29973
G1 X91.009 Y153.718 E4.41485
G1 X86.831 Y153.364 E4.52991
G1 X82.826 Y152.111 E4.64506
G1 X79.142 Y150.074 E4.76057
G1 X75.888 Y147.370 E4.87667
G1 X73.159 Y144.117 E4.99318
G1 X71.032 Y140.433 E5.10991
G1 X69.578 Y136.443 E5.22644
G1 X68.863 Y132.273 E5.34253
G1 X68.929 Y128.703 E5.44051
G1 X68.954 Y128.010 E5.45954
G1 X69.701 Y124.676 E5.55329
G1 X69.868 Y123.951 E5.57371
G1 X71.303 Y120.894 E5.66638
G1 X71.639 Y120.176 E5.68813
G1 X73.740 Y117.545 E5.78052
G1 X74.255 Y116.899 E5.80319
G1 X76.900 Y114.890 E5.89433
G1 X77.271 Y114.605 E5.90717
G1 X78.258 Y114.036 E5.93843
G1 X90.353 Y107.053 E6.32166
G1 X90.786 Y106.587 E6.33912
G1 X91.614 Y105.497 E6.37668
G1 X92.325 Y104.337 E6.41401
G1 X92.939 Y103.068 E6.45269
G1 X93.378 Y101.861 E6.48794
G1 X93.378 Y86.793 E6.90141
G1 X93.651 Y84.186 E6.97333
G1 X93.733 Y83.485 E6.99270
G1 X94.638 Y80.698 E7.07311
G1 X94.693 Y80.537 E7.07778
G1 X93.882 Y79.755 E7.10869
G1 X98.724 Y74.539 E7.30398
G1 X99.546 Y73.456 E7.34129
G1 X100.259 Y72.293 E7.37872
G1 X100.873 Y71.025 E7.41738
G1 X101.320 Y69.794 E7.45332
G1 X101.664 Y68.453 E7.49131
G1 X101.869 Y67.114 E7.52848
G1 X101.942 Y65.713 E7.56697
G1 X101.875 Y64.358 E7.60420
G1 X101.672 Y63.015 E7.64147
G1 X101.090 Y60.731 E7.70615
G1 X101.054 Y60.621 E7.70932
G1 X101.058 Y60.608 E7.70970
G1 X100.031 Y56.577 E7.82384
G1 X102.562 Y56.003 E7.89506
G1 X102.648 Y55.746 E7.90249
G1 X100.391 Y51.322 E8.03877
G1 F2700 E3.53877
G0 F9000 X109.016 Y59.415
;TYPE:WALL-INNER
G1 F2700 E8.03877
G1 F1200 X110.044 Y58.669 E8.07363
G1 X112.223 Y58.669 E8.13342
G1 X112.148 Y58.522 E8.13795
G1 X117.358 Y58.522 E8.28091
G1 X117.283 Y58.669 E8.28544
G1 X119.463 Y58.669 E8.34526
G1 X120.489 Y59.414 E8.38005
G1 X120.882 Y60.623 E8.41493
G1 X120.462 Y61.917 E8.45227
G1 X120.716 Y61.975 E8.45941
G1 X120.588 Y62.606 E8.47708
G1 X120.381 Y64.679 E8.53425
G1 X120.381 Y66.763 E8.59143
G1 X120.584 Y68.798 E8.64755
G1 X120.992 Y70.840 E8.70469
G1 X121.604 Y72.832 E8.76187
G1 X122.393 Y74.715 E8.81790
G1 X123.403 Y76.586 E8.87624
G1 X124.573 Y78.309 E8.93339
G1 X125.546 Y79.471 E8.97498
G1 X125.494 Y79.521 E8.97696
G1 X126.993 Y81.186 E9.03843
G1 X128.052 Y83.020 E9.09655
G1 X128.703 Y85.026 E9.15442
G1 X128.923 Y87.122 E9.21225
G1 X128.928 Y87.669 E9.22726
G1 X128.928 Y103.974 E9.67467
G1 X128.925 Y104.114 E9.67851
G1 X128.681 Y106.428 E9.74236
G1 X127.964 Y108.637 E9.80609
G1 X126.805 Y110.642 E9.86964
G1 X125.255 Y112.365 E9.93323
G1 X124.458 Y112.936 E9.96014
G1 X124.555 Y113.046 E9.96416
G1 X123.868 Y113.675 E9.98972
G1 X122.047 Y115.662 E10.06368
G1 X120.405 Y117.801 E10.13767
G1 X118.957 Y120.075 E10.21165
G1 X117.713 Y122.465 E10.28558
G1 X116.680 Y124.956 E10.35958
G1 X115.870 Y127.527 E10.43355
G1 X115.673 Y128.416 E10.45853
G1 X115.540 Y128.386 E10.46227
G1 X115.431 Y129.379 E10.48968
G1 X114.714 Y131.588 E10.55341
G1 X113.555 Y133.593 E10.61696
G1 X112.003 Y135.318 E10.68063
G1 X110.087 Y136.707 E10.74557
G1 X95.535 Y145.109 E11.20666
G1 X95.423 Y145.169 E11.21015
G1 X93.194 Y146.105 E11.27648
G1 X90.770 Y146.472 E11.34376
G1 X88.226 Y146.256 E11.41382
G1 X85.672 Y145.457 E11.48725
G1 X83.219 Y144.101 E11.56416
G1 X80.987 Y142.245 E11.64381
G1 X79.080 Y139.972 E11.72523
G1 X77.583 Y137.382 E11.80732
G1 X76.565 Y134.585 E11.88899
G1 X76.075 Y131.727 E11.96856
G1 X76.126 Y128.929 E12.04535
G1 X76.712 Y126.317 E12.11881
G1 X77.798 Y124.002 E12.18897
G1 X79.328 Y122.086 E12.25625
G1 X81.279 Y120.605 E12.32347
G1 X94.141 Y113.179 E12.73100
G1 X94.591 Y112.919 E12.74526
G1 X94.893 Y112.745 E12.75483
G1 X96.302 Y111.228 E12.81164
G1 X97.562 Y109.570 E12.86878
G1 X98.651 Y107.794 E12.92595
G1 X99.534 Y105.970 E12.98156
G1 X99.574 Y105.890 E12.98401
G1 X100.275 Y103.962 E13.04030
G1 X100.572 Y102.810 E13.07295
G1 X100.578 Y102.105 E13.09229
G1 X100.578 Y87.168 E13.50217
G1 X100.802 Y85.026 E13.56127
G1 X101.454 Y83.021 E13.61912
G1 X102.511 Y81.188 E13.67718
G1 X103.408 Y80.192 E13.71396
G1 X104.012 Y79.525 E13.73865
G1 X103.963 Y79.478 E13.74052
G1 X104.244 Y79.175 E13.75186
G1 X105.496 Y77.526 E13.80867
G1 X106.585 Y75.750 E13.86583
G1 X107.468 Y73.926 E13.92144
G1 X107.508 Y73.846 E13.92390
G1 X108.208 Y71.917 E13.98021
G1 X108.726 Y69.901 E14.03732
G1 X109.041 Y67.841 E14.09451
G1 X109.147 Y65.807 E14.15039
G1 X109.151 Y65.723 E14.15270
G1 X109.048 Y63.640 E14.20993
G1 X108.796 Y61.973 E14.25619
G1 X109.044 Y61.917 E14.26317
G1 X108.624 Y60.622 E14.30053
G1 X109.016 Y59.415 E14.33535
G0 F9000 X114.186 Y78.481
G1 F1200 X112.043 Y79.177 E14.39718
G1 X110.368 Y80.685 E14.45902
G1 X109.451 Y82.745 E14.52090
G1 X109.451 Y84.998 E14.58272
G1 X110.278 Y86.859 E14.63860
G1 X110.374 Y87.064 E14.64481
G1 X111.875 Y88.414 E14.70021
G1 X112.037 Y88.564 E14.70627
G1 X113.964 Y89.190 E14.76186
G1 X114.182 Y89.262 E14.76816
G1 X116.206 Y89.050 E14.82401
G1 X116.431 Y89.024 E14.83022
G1 X118.184 Y88.013 E14.88575
G1 X118.381 Y87.899 E14.89200
G1 X119.571 Y86.259 E14.94760
G1 X119.704 Y86.076 E14.95380
G1 X120.121 Y84.112 E15.00890
G1 X120.175 Y83.882 E15.01538
G1 X119.703 Y81.667 E15.07753
G1 X118.380 Y79.843 E15.13936
G1 X116.427 Y78.717 E15.20122
G1 X114.186 Y78.481 E15.26305
G0 F9000 X112.096 Y79.270
G0 X110.455 Y80.748
G0 X109.556 Y82.768
G0 X109.556 Y84.975
G0 X88.213 Y129.840
G1 F1200 X86.069 Y129.144 E15.32490
G1 X83.828 Y129.379 E15.38673
G1 X81.875 Y130.506 E15.44861
G1 X80.551 Y132.330 E15.51045
G1 X80.083 Y134.534 E15.57228
G1 X80.506 Y136.526 E15.62816
G1 X80.557 Y136.746 E15.63436
G1 X81.741 Y138.377 E15.68966
G1 X81.875 Y138.561 E15.69591
G1 X83.629 Y139.574 E15.75149
G1 X83.827 Y139.689 E15.75777
G1 X85.844 Y139.900 E15.81342
G1 X86.065 Y139.925 E15.81952
G1 X88.001 Y139.297 E15.87537
G1 X88.216 Y139.225 E15.88159
G1 X89.723 Y137.868 E15.93724
G1 X89.890 Y137.714 E15.94347
G1 X90.704 Y135.884 E15.99843
G1 X90.804 Y135.670 E16.00492
G1 X90.804 Y133.407 E16.06701
G1 X89.887 Y131.348 E16.12886
G1 X88.213 Y129.840 E16.19069
G0 F9000 X87.906 Y130.371
;TYPE:WALL-OUTER
G1 F1200 X86.005 Y129.754 E16.24553
G1 X84.017 Y129.962 E16.30038
G1 X82.286 Y130.962 E16.35523
G1 X81.112 Y132.579 E16.41007
G1 X80.696 Y134.534 E16.46491
G1 X81.091 Y136.395 E16.51712
G1 X81.114 Y136.491 E16.51982
G1 X82.286 Y138.106 E16.57458
G1 X84.017 Y139.106 E16.62944
G1 X85.904 Y139.303 E16.68150
G1 X86.004 Y139.314 E16.68426
G1 X87.814 Y138.727 E16.73647
G1 X87.907 Y138.696 E16.73916
G1 X89.319 Y137.425 E16.79129
G1 X89.392 Y137.357 E16.79403
G1 X90.161 Y135.629 E16.84593
G1 X90.204 Y135.537 E16.84871
G1 X90.204 Y133.534 E16.90368
G1 X89.391 Y131.709 E16.95850
G1 X87.906 Y130.371 E17.01335
G0 F9000 X88.030 Y129.992
G0 X81.165 Y120.441
G0 X80.923 Y120.122
G1 F1200 X94.515 Y112.270 E17.44408
G1 X95.842 Y110.841 E17.49759
G1 X97.066 Y109.231 E17.55309
G1 X98.124 Y107.506 E17.60861
G1 X98.999 Y105.699 E17.66371
G1 X99.701 Y103.784 E17.71967
G1 X99.973 Y102.731 E17.74952
G1 X99.978 Y102.102 E17.76678
G1 X99.978 Y87.134 E18.17750
G1 X100.211 Y84.913 E18.23878
G1 X100.213 Y84.898 E18.23920
G1 X100.899 Y82.786 E18.30013
G1 X102.015 Y80.846 E18.36154
G1 X103.177 Y79.552 E18.40927
G1 X103.123 Y79.500 E18.41132
G1 X103.784 Y78.788 E18.43798
G1 X105.000 Y77.187 E18.49315
G1 X106.058 Y75.462 E18.54868
G1 X106.933 Y73.655 E18.60377
G1 X107.634 Y71.740 E18.65973
G1 X108.137 Y69.780 E18.71525
G1 X108.444 Y67.780 E18.77078
G1 X108.550 Y65.721 E18.82735
G1 X108.450 Y63.700 E18.88287
G1 X108.147 Y61.698 E18.93844
G1 X108.101 Y61.516 E18.94359
G1 X108.271 Y61.477 E18.94837
G1 X107.993 Y60.622 E18.97304
G1 X108.506 Y59.045 E19.01855
G1 X109.849 Y58.069 E19.06410
G1 X111.243 Y58.069 E19.10236
G1 X111.168 Y57.922 E19.10688
G1 X118.338 Y57.922 E19.30363
G1 X118.263 Y58.069 E19.30816
G1 X119.657 Y58.069 E19.34641
G1 X121.000 Y59.044 E19.39195
G1 X121.512 Y60.623 E19.43750
G1 X121.235 Y61.477 E19.46213
G1 X121.420 Y61.519 E19.46734
G1 X121.182 Y62.695 E19.50026
G1 X120.981 Y64.709 E19.55580
G1 X120.981 Y66.733 E19.61134
G1 X121.178 Y68.709 E19.66583
G1 X121.575 Y70.693 E19.72135
G1 X122.169 Y72.627 E19.77687
G1 X122.946 Y74.481 E19.83203
G1 X123.916 Y76.273 E19.88794
G1 X125.052 Y77.947 E19.94346
G1 X126.349 Y79.497 E19.99892
G1 X126.367 Y79.515 E19.99961
G1 X126.329 Y79.552 E20.00107
G1 X127.483 Y80.834 E20.04840
G1 X128.596 Y82.763 E20.10951
G1 X128.603 Y82.774 E20.10987
G1 X129.289 Y84.889 E20.17088
G1 X129.523 Y87.092 E20.23167
G1 X129.528 Y87.669 E20.24751
G1 X129.528 Y103.988 E20.69530
G1 X129.524 Y104.155 E20.69989
G1 X129.271 Y106.553 E20.76605
G1 X128.516 Y108.879 E20.83316
G1 X127.292 Y110.997 E20.90028
G1 X125.657 Y112.815 E20.96738
G1 X125.347 Y113.037 E20.97784
G1 X125.394 Y113.090 E20.97978
G1 X124.293 Y114.100 E21.02078
G1 X122.507 Y116.048 E21.09330
G1 X120.897 Y118.146 E21.16587
G1 X119.477 Y120.375 E21.23839
G1 X118.257 Y122.719 E21.31090
G1 X117.245 Y125.161 E21.38343
G1 X116.450 Y127.682 E21.45597
G1 X116.128 Y129.134 E21.49678
G1 X116.063 Y129.119 E21.49861
G1 X116.021 Y129.505 E21.50926
G1 X115.266 Y131.830 E21.57634
G1 X114.042 Y133.948 E21.64347
G1 X112.406 Y135.767 E21.71060
G1 X110.412 Y137.212 E21.77817
G1 X95.842 Y145.625 E22.23984
G1 X95.683 Y145.710 E22.24479
G1 X93.357 Y146.687 E22.31401
G1 X90.789 Y147.076 E22.38528
G1 X88.109 Y146.849 E22.45909
G1 X85.437 Y146.013 E22.53591
G1 X82.881 Y144.600 E22.61605
G1 X80.563 Y142.673 E22.69877
G1 X78.586 Y140.316 E22.78318
G1 X77.036 Y137.633 E22.86821
G1 X75.984 Y134.742 E22.95263
G1 X75.474 Y131.770 E23.03537
G1 X75.527 Y128.885 E23.11455
G1 X75.528 Y128.857 E23.11532
G1 X76.137 Y126.139 E23.19175
G1 X76.140 Y126.122 E23.19222
G1 X77.286 Y123.681 E23.26622
G1 X78.904 Y121.655 E23.33737
G1 X80.923 Y120.122 E23.40693
G0 F9000 X81.165 Y120.441
G0 X94.828 Y112.664
G0 X97.479 Y109.512
G0 X99.482 Y105.849
G0 X100.478 Y102.104
G0 X110.503 Y86.867
G0 X110.866 Y86.699
G1 F1200 X112.276 Y87.968 E23.45898
G1 X112.348 Y88.034 E23.46166
G1 X114.154 Y88.620 E23.51376
G1 X114.249 Y88.652 E23.51651
G1 X116.141 Y88.453 E23.56872
G1 X116.239 Y88.442 E23.57142
G1 X117.969 Y87.444 E23.62623
G1 X119.143 Y85.827 E23.68106
G1 X119.537 Y83.975 E23.73302
G1 X119.560 Y83.875 E23.73583
G1 X119.143 Y81.916 E23.79079
G1 X117.969 Y80.299 E23.84562
G1 X116.238 Y79.300 E23.90046
G1 X114.250 Y79.091 E23.95532
G1 X112.350 Y79.708 E24.01013
G1 X110.864 Y81.046 E24.06500
G1 X110.051 Y82.872 E24.11985
G1 X110.051 Y84.871 E24.17470
G1 X110.824 Y86.610 E24.22692
G1 X110.866 Y86.699 E24.22962
G0 F9000 X109.931 Y86.596
;TYPE:SKIN
G1 F1200 X103.613 Y80.279 E24.47478
G0 F9000 X103.211 Y80.725
G1 F1200 X128.512 Y106.026 E25.45662
G0 F9000 X128.363 Y106.725
G1 F1200 X102.809 Y81.171 E26.44828
G0 F9000 X102.468 Y81.680
G1 F1200 X128.155 Y107.366 E27.44507
G0 F9000 X127.947 Y108.007
G1 F1200 X102.158 Y82.218 E28.44585
G0 F9000 X101.848 Y82.756
G1 F1200 X127.723 Y108.632 E29.44998
G0 F9000 X127.412 Y109.169
G1 F1200 X101.572 Y83.328 E30.45275
G0 F9000 X101.364 Y83.969
G1 F1200 X127.102 Y109.707 E31.45155
G0 F9000 X126.791 Y110.245
G1 F1200 X101.156 Y84.610 E32.44635
G0 F9000 X100.984 Y85.286
G1 F1200 X126.435 Y110.737 E33.43401
G0 F9000 X126.034 Y111.184
G1 F1200 X100.904 Y86.054 E34.40921
G0 F9000 X100.823 Y86.822
G1 F1200 X125.632 Y111.631 E35.37195
G0 F9000 X125.230 Y112.077
G1 F1200 X100.786 Y87.633 E36.32053
G0 F9000 X100.786 Y88.482
G1 F1200 X124.761 Y112.458 E37.25093
G0 F9000 X124.266 Y112.811
G1 F1200 X100.786 Y89.330 E38.16212
G0 F9000 X100.785 Y90.178
G1 F1200 X123.934 Y113.328 E39.06047
G0 F9000 X123.511 Y113.753
G1 F1200 X100.785 Y91.027 E39.94238
G0 F9000 X100.784 Y91.875
G1 F1200 X123.105 Y114.196 E40.80858
G0 F9000 X122.699 Y114.638
G1 F1200 X100.784 Y92.723 E41.65901
G0 F9000 X100.784 Y93.572
G1 F1200 X122.294 Y115.081 E42.49372
G0 F9000 X121.888 Y115.524
G1 F1200 X100.783 Y94.419 E43.31272
G0 F9000 X100.783 Y95.268
G1 F1200 X121.519 Y116.003 E44.11739
G0 F9000 X121.150 Y116.483
G1 F1200 X100.783 Y96.117 E44.90774
G0 F9000 X100.783 Y96.964
G1 F1200 X120.782 Y116.963 E45.68383
G0 F9000 X120.413 Y117.444
G1 F1200 X100.783 Y97.813 E46.44561
G0 F9000 X100.782 Y98.661
G1 F1200 X120.065 Y117.943 E47.19390
G0 F9000 X128.593 Y105.258
G1 F1200 X112.159 Y88.824 E47.83164
G0 F9000 X113.416 Y89.233
G1 F1200 X128.674 Y104.491 E48.42374
G0 F9000 X128.717 Y103.685
G1 F1200 X114.472 Y89.441 E48.97652
G0 F9000 X115.240 Y89.360
G1 F1200 X128.717 Y102.837 E49.49951
G0 F9000 X128.717 Y101.988
G1 F1200 X116.007 Y89.279 E49.99272
G0 F9000 X116.692 Y89.115
G1 F1200 X128.716 Y101.139 E50.45933
G0 F9000 X128.716 Y100.291
G1 F1200 X117.230 Y88.804 E50.90508
G0 F9000 X117.769 Y88.495
G1 F1200 X128.716 Y99.442 E51.32989
G0 F9000 X128.716 Y98.593
G1 F1200 X118.307 Y88.184 E51.73382
G0 F9000 X118.736 Y87.765
G1 F1200 X128.716 Y97.744 E52.12109
G0 F9000 X128.716 Y96.896
G1 F1200 X119.093 Y87.273 E52.49452
G0 F9000 X119.450 Y86.781
G1 F1200 X128.715 Y96.047 E52.85408
G0 F9000 X128.715 Y95.198
G1 F1200 X119.806 Y86.289 E53.19981
G0 F9000 X120.068 Y83.881
G0 X119.605 Y81.711
G0 X119.133 Y80.525
G1 F1200 X128.713 Y90.105 E53.57157
G0 F9000 X128.713 Y90.954
G1 F1200 X120.049 Y82.289 E53.90781
G0 F9000 X120.278 Y83.367
G1 F1200 X128.713 Y91.802 E54.23514
G0 F9000 X128.714 Y92.652
G1 F1200 X120.306 Y84.243 E54.56144
G0 F9000 X120.157 Y84.943
G1 F1200 X128.714 Y93.500 E54.89351
G0 F9000 X128.715 Y94.349
G1 F1200 X120.008 Y85.643 E55.23137
G0 F9000 X126.978 Y81.582
G1 F1200 X109.269 Y63.872 E55.91861
G0 F9000 X109.313 Y64.765
G1 F1200 X127.958 Y83.411 E56.64218
G0 F9000 X128.365 Y84.666
G1 F1200 X109.356 Y65.657 E57.37984
G0 F9000 X109.321 Y66.470
G1 F1200 X128.564 Y85.713 E58.12659
G0 F9000 X128.663 Y86.661
G1 F1200 X109.279 Y67.277 E58.87881
G0 F9000 X109.218 Y68.064
G1 F1200 X128.713 Y87.559 E59.63534
G0 F9000 X128.713 Y88.408
G1 F1200 X109.105 Y68.800 E60.39626
G0 F9000 X108.992 Y69.536
G1 F1200 X128.713 Y89.256 E61.16153
G0 F9000 X123.817 Y77.573
G1 F1200 X109.149 Y62.904 E61.73076
G0 F9000 X109.192 Y62.098
G1 F1200 X122.557 Y75.464 E62.24943
G0 F9000 X121.809 Y73.867
G1 F1200 X108.977 Y61.035 E62.74739
G0 F9000 X108.982 Y60.192
G1 F1200 X121.277 Y72.486 E63.22450
G0 F9000 X120.901 Y71.262
G1 F1200 X109.190 Y59.551 E63.67896
G0 F9000 X109.680 Y59.192
