;Generated with Cura_SteamEngine 15.04
M109 S210     ;Heatup to 210C
G21           ;metric values
G90           ;absolute positioning
G28           ;Home
G1 Z15.0 F300 ;move the platform down 15mm
G92 E0        ;zero the extruded length
G1 F200 E5    ;extrude 5mm of feed stock
G92 E0        ;zero the extruded length again

;Layer count: 18
;LAYER:0
M107
G0 F9000 X75.563 Y83.501 Z0.300
G0 X75.563 Y85.190
;TYPE:SKIRT
G1 F1200 X75.563 Y83.501 E0.04635
G1 X100.863 Y83.501 E0.74058
G1 X100.863 Y85.189 E0.78690
G1 X102.559 Y86.420 E0.84441
G1 X103.567 Y87.153 E0.87861
G1 X105.172 Y89.366 E0.95362
G1 X105.525 Y89.851 E0.97008
G1 X107.213 Y89.851 E1.01640
G1 X107.213 Y91.921 E1.07320
G1 X128.923 Y91.921 E1.66893
G1 X136.026 Y99.025 E1.94459
G1 X134.332 Y103.117 E2.06612
G1 X135.018 Y104.774 E2.11533
G1 X124.362 Y115.431 E2.52887
G1 X122.011 Y113.080 E2.62010
G1 X120.100 Y113.080 E2.67254
G1 X118.149 Y115.085 E2.74930
G1 X115.304 Y112.240 E2.85971
G1 X113.401 Y114.142 E2.93354
G1 X111.498 Y112.241 E3.00735
G1 X108.715 Y115.024 E3.11534
G1 X107.213 Y113.522 E3.17363
G1 X107.213 Y115.150 E3.21830
G1 X105.526 Y115.150 E3.26459
G1 X103.565 Y117.852 E3.35621
G1 X100.863 Y119.813 E3.44782
G1 X100.863 Y121.500 E3.49411
G1 X75.563 Y121.500 E4.18835
G1 X75.563 Y119.812 E4.23467
G1 X72.862 Y117.852 E4.32624
G1 X70.901 Y115.150 E4.41785
G1 X69.213 Y115.150 E4.46417
G1 X69.213 Y89.851 E5.15838
G1 X70.902 Y89.851 E5.20473
G1 X72.132 Y88.156 E5.26219
G1 X72.865 Y87.148 E5.29639
G1 X75.083 Y85.539 E5.37158
G1 X75.563 Y85.190 E5.38787
G1 F2700 E0.88787
G0 F9000 X119.962 Y104.405
;TYPE:FILL
G1 F2700 E5.38787
G1 F1200 X120.522 Y104.966 E5.40962
G0 F9000 X120.346 Y105.377
G0 X122.790 Y103.996
G0 X122.790 Y104.405
G1 F1200 X123.351 Y104.967 E5.43141
G0 F9000 X124.291 Y105.177
;TYPE:WALL-INNER
G1 F1200 X121.561 Y105.177 E5.50632
G1 X121.021 Y105.717 E5.52728
G1 X120.480 Y105.177 E5.54825
G1 X118.423 Y105.177 E5.60469
G1 X117.442 Y104.196 E5.64276
G1 X125.415 Y104.196 E5.86154
G1 X124.362 Y105.249 E5.90241
G1 X124.291 Y105.177 E5.90518
G1 F2700 E1.40518
G0 F9000 X125.941 Y99.121
G1 F2700 E5.90518
G1 F1200 X126.423 Y99.603 E5.92389
G1 X98.426 Y99.603 E6.69213
G1 X98.426 Y104.197 E6.81819
G1 X109.360 Y104.197 E7.11822
G1 X108.380 Y105.177 E7.15625
G1 X106.321 Y105.177 E7.21275
G1 X105.619 Y105.880 E7.24001
G1 X100.013 Y105.880 E7.39384
G1 X100.013 Y107.950 E7.45064
G1 X99.935 Y107.950 E7.45278
G1 X99.935 Y109.701 E7.50083
G1 X99.409 Y111.320 E7.54754
G1 X98.410 Y112.697 E7.59422
G1 X97.033 Y113.696 E7.64090
G1 X95.414 Y114.222 E7.68762
G1 X93.663 Y114.222 E7.73566
G1 X93.663 Y114.300 E7.73780
G1 X82.763 Y114.300 E8.03690
G1 X82.763 Y114.222 E8.03904
G1 X81.013 Y114.222 E8.08706
G1 X79.394 Y113.696 E8.13377
G1 X78.017 Y112.697 E8.18046
G1 X77.018 Y111.320 E8.22714
G1 X76.492 Y109.701 E8.27385
G1 X76.492 Y107.950 E8.32190
G1 X76.413 Y107.950 E8.32406
G1 X76.413 Y103.853 E8.43649
G1 X77.539 Y105.401 E8.48901
G1 X77.853 Y105.835 E8.50371
G1 X79.767 Y106.456 E8.55893
G1 X80.275 Y106.621 E8.57358
G1 X82.190 Y106.000 E8.62883
G1 X82.698 Y105.834 E8.64349
G1 X83.882 Y104.207 E8.69871
G1 X84.196 Y103.774 E8.71338
G1 X84.196 Y101.226 E8.78330
G1 X82.698 Y99.166 E8.85319
G1 X80.276 Y98.379 E8.92307
G1 X77.854 Y99.166 E8.99295
G1 X76.413 Y101.148 E9.06020
G1 X76.413 Y97.051 E9.17262
G1 X76.492 Y97.051 E9.17479
G1 X76.492 Y95.301 E9.22281
G1 X76.986 Y93.781 E9.26666
G1 X77.018 Y93.682 E9.26952
G1 X77.957 Y92.388 E9.31339
G1 X78.017 Y92.306 E9.31618
G1 X79.312 Y91.366 E9.36009
G1 X79.394 Y91.306 E9.36288
G1 X80.916 Y90.812 E9.40678
G1 X81.014 Y90.780 E9.40961
G1 X82.763 Y90.780 E9.45761
G1 X82.763 Y90.701 E9.45977
G1 X93.663 Y90.701 E9.75887
G1 X93.663 Y90.780 E9.76104
G1 X95.414 Y90.780 E9.80909
G1 X96.934 Y91.274 E9.85294
G1 X97.033 Y91.306 E9.85580
G1 X98.327 Y92.245 E9.89967
G1 X98.409 Y92.305 E9.90246
G1 X99.349 Y93.600 E9.94637
G1 X99.409 Y93.682 E9.94916
G1 X99.903 Y95.204 E9.99306
G1 X99.935 Y95.302 E9.99589
G1 X99.935 Y97.051 E10.04389
G1 X100.013 Y97.051 E10.04603
G1 X100.013 Y99.121 E10.10283
G1 X125.941 Y99.121 E10.81430
G0 F9000 X126.189 Y98.521
;TYPE:WALL-OUTER
G1 F1200 X127.871 Y100.203 E10.87957
G1 X99.026 Y100.203 E11.67108
G1 X99.026 Y103.597 E11.76421
G1 X126.863 Y103.596 E12.52807
G1 X124.362 Y106.097 E12.62512
G1 X124.042 Y105.777 E12.63754
G1 X121.810 Y105.777 E12.69878
G1 X121.107 Y106.480 E12.72606
G1 X120.936 Y106.480 E12.73076
G1 X120.232 Y105.777 E12.75806
G1 X118.175 Y105.777 E12.81450
G1 X116.422 Y104.025 E12.88251
G1 X114.190 Y104.025 E12.94376
G1 X113.401 Y104.813 E12.97435
G1 X112.612 Y104.025 E13.00495
G1 X110.380 Y104.025 E13.06620
G1 X108.628 Y105.777 E13.13419
G1 X106.570 Y105.777 E13.19066
G1 X105.867 Y106.480 E13.21794
G1 X100.613 Y106.480 E13.36211
G1 X100.613 Y108.550 E13.41891
G1 X100.535 Y108.550 E13.42105
G1 X100.535 Y109.797 E13.45527
G1 X99.951 Y111.594 E13.50712
G1 X98.839 Y113.126 E13.55907
G1 X97.307 Y114.238 E13.61101
G1 X95.510 Y114.822 E13.66286
G1 X94.263 Y114.822 E13.69708
G1 X94.263 Y114.900 E13.69922
G1 X82.163 Y114.900 E14.03124
G1 X82.163 Y114.822 E14.03338
G1 X80.917 Y114.822 E14.06757
G1 X79.120 Y114.238 E14.11942
G1 X77.588 Y113.126 E14.17137
G1 X76.476 Y111.594 E14.22331
G1 X75.892 Y109.797 E14.27516
G1 X75.892 Y108.550 E14.30938
G1 X75.813 Y108.550 E14.31155
G1 X75.813 Y96.451 E14.64355
G1 X75.892 Y96.451 E14.64571
G1 X75.892 Y95.205 E14.67990
G1 X76.476 Y93.408 E14.73175
G1 X77.588 Y91.876 E14.78370
G1 X79.120 Y90.764 E14.83564
G1 X80.917 Y90.180 E14.88749
G1 X82.163 Y90.180 E14.92168
G1 X82.163 Y90.101 E14.92385
G1 X94.263 Y90.101 E15.25588
G1 X94.263 Y90.180 E15.25804
G1 X95.510 Y90.180 E15.29226
G1 X97.307 Y90.764 E15.34411
G1 X98.839 Y91.876 E15.39606
G1 X99.951 Y93.408 E15.44800
G1 X100.535 Y95.205 E15.49985
G1 X100.535 Y96.451 E15.53404
G1 X100.613 Y96.451 E15.53618
G1 X100.613 Y98.521 E15.59298
G1 X126.189 Y98.521 E16.29479
G0 F9000 X126.002 Y98.898
G0 X98.585 Y99.762
G0 X83.996 Y101.421
G0 X83.596 Y101.421
G1 F1200 X82.327 Y99.677 E16.35398
G1 X80.276 Y99.010 E16.41316
G1 X78.225 Y99.677 E16.47234
G1 X76.956 Y101.421 E16.53152
G1 X76.956 Y103.580 E16.59076
G1 X78.225 Y105.324 E16.64995
G1 X80.276 Y105.990 E16.70912
G1 X82.327 Y105.324 E16.76829
G1 X83.596 Y103.580 E16.82748
G1 X83.596 Y101.421 E16.88672
G0 F9000 X84.405 Y101.800
;TYPE:SKIN
G1 F1200 X96.313 Y113.708 E17.34883
G0 F9000 X96.949 Y113.495
G1 F1200 X83.859 Y100.405 E17.85680
G0 F9000 X84.405 Y102.649
G1 F1200 X95.672 Y113.916 E18.29403
G0 F9000 X94.919 Y114.011
G1 F1200 X84.405 Y103.497 E18.70204
G0 F9000 X84.193 Y104.133
G1 F1200 X94.070 Y114.011 E19.08535
G0 F9000 X93.300 Y114.089
G1 F1200 X83.835 Y104.624 E19.45265
G0 F9000 X83.478 Y105.116
G1 F1200 X92.452 Y114.089 E19.80088
G0 F9000 X91.603 Y114.089
G1 F1200 X83.121 Y105.607 E20.13003
G0 F9000 X82.714 Y106.049
G1 F1200 X90.755 Y114.089 E20.44205
G0 F9000 X89.906 Y114.089
G1 F1200 X82.073 Y106.256 E20.74602
G0 F9000 X81.433 Y106.464
G1 F1200 X89.057 Y114.089 E21.04190
G0 F9000 X88.209 Y114.089
G1 F1200 X80.791 Y106.672 E21.32975
G0 F9000 X80.032 Y106.761
G1 F1200 X87.360 Y114.089 E21.61412
G0 F9000 X86.512 Y114.089
G1 F1200 X78.777 Y106.354 E21.91429
G0 F9000 X76.622 Y106.745
G1 F1200 X83.966 Y114.089 E22.19928
G0 F9000 X83.118 Y114.089
G1 F1200 X76.622 Y107.594 E22.45135
G0 F9000 X76.701 Y108.521
G1 F1200 X82.191 Y114.011 E22.66439
G0 F9000 X81.342 Y114.011
G1 F1200 X76.701 Y109.370 E22.84449
G0 F9000 X76.967 Y110.484
G1 F1200 X80.228 Y113.745 E22.97104
G0 F9000 X84.815 Y114.089
G1 F1200 X76.622 Y105.897 E23.28896
G0 F9000 X76.622 Y105.048
G1 F1200 X85.663 Y114.089 E23.63981
G0 F9000 X97.440 Y113.138
G1 F1200 X77.573 Y93.271 E24.41077
G0 F9000 X77.930 Y92.780
G1 F1200 X97.932 Y112.781 E25.18696
G0 F9000 X98.379 Y112.379
G1 F1200 X78.334 Y92.335 E25.96481
G0 F9000 X78.826 Y91.978
G1 F1200 X98.736 Y111.888 E26.73744
G0 F9000 X99.093 Y111.396
G1 F1200 X79.317 Y91.621 E27.50485
G0 F9000 X79.904 Y91.359
G1 F1200 X99.354 Y110.809 E28.25964
G0 F9000 X99.562 Y110.169
G1 F1200 X80.545 Y91.152 E28.99761
G0 F9000 X81.231 Y90.989
G1 F1200 X99.725 Y109.483 E29.71530
G0 F9000 X99.725 Y108.634
G1 F1200 X82.079 Y90.989 E30.40005
G0 F9000 X82.928 Y90.989
G1 F1200 X99.725 Y107.786 E31.05188
G0 F9000 X99.803 Y107.015
G1 F1200 X83.698 Y90.911 E31.67684
G0 F9000 X84.547 Y90.911
G1 F1200 X99.803 Y106.167 E32.26887
G0 F9000 X100.153 Y105.669
G1 F1200 X98.891 Y104.407 E32.31784
G0 F9000 X99.740 Y104.407
G1 F1200 X101.002 Y105.669 E32.36681
G0 F9000 X101.850 Y105.669
G1 F1200 X100.588 Y104.407 E32.41579
G0 F9000 X101.437 Y104.407
G1 F1200 X102.699 Y105.669 E32.46476
G0 F9000 X103.548 Y105.669
G1 F1200 X102.285 Y104.407 E32.51375
G0 F9000 X103.134 Y104.407
G1 F1200 X104.396 Y105.669 E32.56273
G0 F9000 X105.245 Y105.669
G1 F1200 X103.982 Y104.407 E32.61172
G0 F9000 X104.831 Y104.407
G1 F1200 X105.812 Y105.388 E32.64979
G0 F9000 X106.239 Y104.967
G1 F1200 X106.103 Y104.407 E32.67148
G1 X107.232 Y104.687 E32.69318
G1 X108.081 Y104.687 E32.71489
G1 X108.538 Y104.720 E32.72746
G1 F2700 E28.22746
G0 F9000 X118.406 Y104.405
G1 F2700 E32.72746
G1 F1200 X119.110 Y104.685 E32.74922
G1 X119.815 Y104.966 E32.77005
G0 F9000 X120.103 Y104.405
G1 F1200 X121.068 Y105.370 E32.80750
G0 F9000 X121.513 Y104.967
G1 F1200 X121.376 Y104.405 E32.82929
G1 X122.505 Y104.686 E32.85106
G1 X123.353 Y104.686 E32.87281
G1 X124.202 Y104.686 E32.89460
G1 X124.626 Y104.686 E32.90623
G1 F2700 E28.40623
G0 F9000 X99.802 Y99.378
G1 F2700 E32.90623
G1 F1200 X91.335 Y90.911 E33.23480
G0 F9000 X90.487 Y90.911
G1 F1200 X98.968 Y99.392 E33.56392
G0 F9000 X98.216 Y99.489
G1 F1200 X89.638 Y90.911 E33.89680
G0 F9000 X88.789 Y90.911
G1 F1200 X98.216 Y100.337 E34.26261
G0 F9000 X98.216 Y101.186
G1 F1200 X87.941 Y90.911 E34.66134
G0 F9000 X87.092 Y90.911
G1 F1200 X98.216 Y102.034 E35.09300
G0 F9000 X98.216 Y102.883
G1 F1200 X86.244 Y90.911 E35.55759
G0 F9000 X85.395 Y90.911
G1 F1200 X98.216 Y103.731 E36.05511
G0 F9000 X98.585 Y99.762
G0 X99.802 Y98.529
G1 F1200 X92.184 Y90.911 E36.35073
G0 F9000 X93.032 Y90.911
G1 F1200 X99.802 Y97.681 E36.61345
G0 F9000 X99.724 Y96.754
G1 F1200 X93.960 Y90.990 E36.83713
G0 F9000 X94.808 Y90.990
G1 F1200 X99.724 Y95.906 E37.02790
G0 F9000 X99.591 Y94.924
G1 F1200 X95.791 Y91.124 E37.17537
G0 F9000 X97.208 Y91.693
G1 F1200 X99.017 Y93.502 E37.24557
G0 F9000 X82.254 Y98.800
G1 F1200 X77.217 Y93.763 E37.44103
G0 F9000 X77.004 Y94.399
G1 F1200 X80.997 Y98.392 E37.59599
G0 F9000 X80.003 Y98.246
G1 F1200 X76.796 Y95.040 E37.72042
G0 F9000 X76.701 Y95.793
G1 F1200 X79.362 Y98.454 E37.82368
G0 F9000 X78.722 Y98.662
G1 F1200 X76.701 Y96.642 E37.90209
G0 F9000 X76.622 Y97.411
G1 F1200 X78.081 Y98.870 E37.95871
G0 F9000 X77.566 Y99.204
G1 F1200 X76.622 Y98.260 E37.99534
G0 F9000 X76.622 Y99.108
G1 F1200 X77.030 Y99.941 E38.01812
G1 X76.622 Y99.957 E38.02933
G0 F9000 X76.392 Y101.424
G1 F1200 X76.384 Y101.840 E38.03953
G1 X76.384 Y102.688 E38.06059
G1 X76.656 Y103.384 E38.08109
;LAYER:1
M106 S127
G0 F9000 X76.656 Y103.677 Z0.400
;TYPE:WALL-INNER
G1 F1620 X78.039 Y105.580 E38.09544
G1 X80.276 Y106.306 E38.10978
G1 X82.513 Y105.580 E38.12412
G1 X83.896 Y103.677 E38.13846
G1 X83.896 Y101.324 E38.15281
G1 X82.513 Y99.422 E38.16715
G1 X80.276 Y98.694 E38.18150
G1 X78.039 Y99.422 E38.19584
G1 X76.656 Y101.324 E38.21018
G1 X76.656 Y103.677 E38.22453
G0 F9000 X76.192 Y108.250
G1 F1620 X76.113 Y108.250 E38.22501
G1 X76.113 Y96.751 E38.29513
G1 X76.192 Y96.751 E38.29561
G1 X76.192 Y95.254 E38.30474
G1 X76.748 Y93.544 E38.31570
G1 X77.656 Y92.292 E38.32514
G1 X77.803 Y92.090 E38.32666
G1 X79.057 Y91.181 E38.33610
G1 X79.258 Y91.035 E38.33762
G1 X80.966 Y90.480 E38.34857
G1 X82.463 Y90.480 E38.35770
G1 X82.463 Y90.401 E38.35818
G1 X93.963 Y90.401 E38.42830
G1 X93.963 Y90.480 E38.42879
G1 X95.461 Y90.480 E38.43792
G1 X97.171 Y91.036 E38.44888
G1 X98.423 Y91.944 E38.45832
G1 X98.625 Y92.091 E38.45984
G1 X99.534 Y93.345 E38.46928
G1 X99.680 Y93.546 E38.47080
G1 X100.235 Y95.254 E38.48175
G1 X100.235 Y96.751 E38.49088
G1 X100.313 Y96.751 E38.49135
G1 X100.313 Y98.821 E38.50398
G1 X126.065 Y98.821 E38.66101
G1 X127.247 Y100.003 E38.67120
G1 X98.726 Y100.003 E38.84512
G1 X98.726 Y103.797 E38.86825
G1 X110.183 Y103.797 E38.93811
G1 X108.504 Y105.477 E38.95260
G1 X106.445 Y105.477 E38.96515
G1 X105.743 Y106.180 E38.97121
G1 X100.313 Y106.180 E39.00432
G1 X100.313 Y108.250 E39.01694
G1 X100.235 Y108.250 E39.01742
G1 X100.235 Y109.748 E39.02655
G1 X99.679 Y111.458 E39.03752
G1 X98.624 Y112.911 E39.04847
G1 X97.171 Y113.966 E39.05942
G1 X95.461 Y114.522 E39.07038
G1 X93.963 Y114.522 E39.07952
G1 X93.963 Y114.600 E39.07999
G1 X82.463 Y114.600 E39.15012
G1 X82.463 Y114.522 E39.15059
G1 X80.966 Y114.522 E39.15972
G1 X79.256 Y113.966 E39.17069
G1 X77.803 Y112.911 E39.18164
G1 X76.748 Y111.458 E39.19258
G1 X76.192 Y109.748 E39.20355
G1 X76.192 Y108.250 E39.21268
G0 F9000 X110.262 Y103.741
G0 X112.808 Y103.797
G1 F1620 X113.994 Y103.796 E39.21992
G1 X113.401 Y104.389 E39.22503
G1 X112.808 Y103.797 E39.23014
G0 F9000 X116.618 Y103.796
G1 F1620 X126.239 Y103.796 E39.28881
G1 X124.362 Y105.673 E39.30499
G1 X124.167 Y105.477 E39.30668
G1 X121.685 Y105.477 E39.32181
G1 X121.022 Y106.141 E39.32754
G1 X120.356 Y105.477 E39.33327
G1 X118.299 Y105.477 E39.34581
G1 X116.618 Y103.796 E39.36031
G0 F9000 X116.381 Y104.125
;TYPE:WALL-OUTER
G1 F1620 X114.231 Y104.125 E39.37342
G1 X113.401 Y104.955 E39.38058
G1 X112.571 Y104.125 E39.38773
G1 X110.421 Y104.125 E39.40085
G1 X108.670 Y105.877 E39.41595
G1 X106.611 Y105.877 E39.42850
G1 X105.909 Y106.580 E39.43456
G1 X100.713 Y106.580 E39.46625
G1 X100.713 Y108.650 E39.47887
G1 X100.635 Y108.650 E39.47935
G1 X100.635 Y109.813 E39.48644
G1 X100.041 Y111.641 E39.49816
G1 X98.911 Y113.198 E39.50989
G1 X97.354 Y114.328 E39.52162
G1 X95.526 Y114.922 E39.53334
G1 X94.363 Y114.922 E39.54043
G1 X94.363 Y115.000 E39.54091
G1 X82.063 Y115.000 E39.61591
G1 X82.063 Y114.922 E39.61639
G1 X80.901 Y114.922 E39.62347
G1 X79.073 Y114.328 E39.63519
G1 X77.516 Y113.198 E39.64692
G1 X76.386 Y111.641 E39.65866
G1 X75.792 Y109.813 E39.67038
G1 X75.792 Y108.650 E39.67747
G1 X75.713 Y108.650 E39.67795
G1 X75.713 Y96.351 E39.75295
G1 X75.792 Y96.351 E39.75343
G1 X75.792 Y95.189 E39.76051
G1 X76.386 Y93.361 E39.77223
G1 X77.516 Y91.804 E39.78397
G1 X79.073 Y90.674 E39.79570
G1 X80.901 Y90.080 E39.80742
G1 X82.063 Y90.080 E39.81450
G1 X82.063 Y90.001 E39.81498
G1 X94.363 Y90.001 E39.88999
G1 X94.363 Y90.080 E39.89047
G1 X95.526 Y90.080 E39.89756
G1 X97.354 Y90.674 E39.90928
G1 X98.911 Y91.804 E39.92101
G1 X100.041 Y93.361 E39.93274
G1 X100.635 Y95.189 E39.94446
G1 X100.635 Y96.351 E39.95155
G1 X100.713 Y96.351 E39.95203
G1 X100.713 Y98.421 E39.96465
G1 X126.231 Y98.421 E40.12025
G1 X128.213 Y100.403 E40.13734
G1 X99.126 Y100.403 E40.31471
G1 X99.126 Y103.397 E40.33297
G1 X127.205 Y103.396 E40.50419
G1 X124.362 Y106.239 E40.52871
G1 X124.001 Y105.877 E40.53182
G1 X121.851 Y105.877 E40.54493
G1 X121.149 Y106.580 E40.55099
G1 X120.895 Y106.580 E40.55254
G1 X120.191 Y105.877 E40.55861
G1 X118.133 Y105.877 E40.57116
G1 X116.381 Y104.125 E40.58627
G0 F9000 X116.381 Y103.825
G0 X83.737 Y103.723
G0 X83.496 Y103.547
G1 F1620 X83.496 Y101.454 E40.59903
G1 X82.266 Y99.762 E40.61178
G1 X80.276 Y99.115 E40.62454
G1 X78.286 Y99.762 E40.63730
G1 X77.056 Y101.454 E40.65006
G1 X77.056 Y103.547 E40.66282
G1 X78.286 Y105.239 E40.67558
G1 X80.276 Y105.885 E40.68834
G1 X82.266 Y105.239 E40.70109
G1 X83.496 Y103.547 E40.71385
G0 F9000 X84.036 Y103.488
;TYPE:SKIN
G1 F1620 X96.545 Y90.979 E40.82172
G0 F9000 X96.971 Y91.118
G1 F1620 X83.151 Y104.938 E40.94090
G0 F9000 X82.292 Y105.798
G1 F1620 X76.832 Y111.258 E40.98799
G0 F9000 X77.038 Y111.617
G1 F1620 X97.331 Y91.324 E41.16298
G0 F9000 X97.659 Y91.562
G1 F1620 X77.276 Y111.944 E41.33876
G0 F9000 X77.514 Y112.273
G1 F1620 X97.986 Y91.800 E41.51530
G0 F9000 X98.314 Y92.038
G1 F1620 X77.752 Y112.601 E41.69263
G0 F9000 X78.022 Y112.896
G1 F1620 X98.609 Y92.309 E41.87016
G0 F9000 X98.847 Y92.637
G1 F1620 X78.349 Y113.134 E42.04692
G0 F9000 X78.677 Y113.372
G1 F1620 X99.085 Y92.964 E42.22291
