;Generated with Cura_SteamEngine 15.04
M109 S210     ;Heatup to 210C
G21           ;metric values
G90           ;absolute positioning
G28           ;Home
G1 Z15.0 F300 ;move the platform down 15mm
G92 E0        ;zero the extruded length
G1 F200 E5    ;extrude 5mm of feed stock
G92 E0        ;zero the extruded length again

;Layer count: 28
;LAYER:0
M107
G0 F9000 X70.545 Y70.419 Z0.300
;TYPE:SKIRT
G1 F1200 X73.743 Y67.514 E0.11855
G1 X76.704 Y65.298 E0.22004
G1 X77.195 Y64.931 E0.23686
G1 X80.880 Y62.693 E0.35516
G1 X84.243 Y61.069 E0.45764
G1 X84.750 Y60.823 E0.47311
G1 X87.497 Y59.765 E0.55388
G1 X90.702 Y58.766 E0.64600
G1 X93.533 Y58.110 E0.72574
G1 X96.846 Y57.563 E0.81788
G1 X99.745 Y57.305 E0.89774
G1 X102.659 Y57.230 E0.97773
G1 X103.115 Y57.220 E0.99025
G1 X106.270 Y57.370 E1.07692
G1 X108.975 Y57.693 E1.15167
G1 X109.445 Y57.749 E1.16466
G1 X112.808 Y58.421 E1.25877
G1 X113.367 Y58.534 E1.27442
G1 X116.796 Y59.544 E1.37250
G1 X117.604 Y59.820 E1.39593
G1 X120.927 Y61.134 E1.49399
G1 X124.494 Y62.920 E1.60345
G1 X127.416 Y64.723 E1.69767
G1 X127.895 Y65.018 E1.71310
G1 X130.654 Y67.076 E1.80755
G1 X131.106 Y67.415 E1.82306
G1 X134.107 Y70.095 E1.93346
G1 X136.869 Y73.036 E2.04417
G1 X138.830 Y75.500 E2.13058
G1 X140.883 Y78.491 E2.23013
G1 X142.332 Y81.014 E2.30997
G1 X142.572 Y81.430 E2.32315
G1 X143.918 Y84.238 E2.40859
G1 X145.257 Y87.591 E2.50767
G1 X146.178 Y90.582 E2.59354
G1 X146.998 Y94.095 E2.69253
G1 X147.489 Y97.409 E2.78446
G1 X147.679 Y99.776 E2.84962
G1 X147.761 Y102.504 E2.92451
G1 X147.695 Y105.059 E2.99464
G1 X147.491 Y107.564 E3.06361
G1 X147.148 Y110.029 E3.13190
G1 X146.709 Y112.270 E3.19456
G1 X146.116 Y114.655 E3.26200
G1 X145.434 Y116.863 E3.32541
G1 X145.325 Y117.207 E3.33531
G1 X144.531 Y119.329 E3.39748
G1 X143.483 Y121.744 E3.46972
G1 X142.456 Y123.779 E3.53227
G1 X141.153 Y126.063 E3.60443
G1 X139.812 Y128.129 E3.67201
G1 X138.478 Y129.963 E3.73424
G1 X136.822 Y132.013 E3.80656
G1 X135.283 Y133.708 E3.86938
G1 X133.405 Y135.577 E3.94208
G1 X131.537 Y137.232 E4.01057
G1 X129.583 Y138.780 E4.07897
G1 X127.504 Y140.250 E4.14884
G1 X124.864 Y141.856 E4.23363
G1 X124.426 Y142.122 E4.24769
G1 X121.525 Y143.580 E4.33679
G1 X120.823 Y143.899 E4.35794
G1 X117.818 Y145.117 E4.44692
G1 X114.855 Y146.051 E4.53217
G1 X114.855 Y146.052 E4.53219
G1 X114.366 Y146.206 E4.54626
G1 X111.210 Y146.929 E4.63511
G1 X110.458 Y147.070 E4.65610
G1 X107.252 Y147.543 E4.74503
G1 X103.621 Y147.780 E4.84487
G1 X100.010 Y147.725 E4.94397
G1 X97.308 Y147.494 E5.01839
G1 X94.675 Y147.112 E5.09139
G1 X92.080 Y146.579 E5.16409
G1 X89.729 Y145.949 E5.23087
G1 X87.050 Y145.078 E5.30817
G1 X84.597 Y144.105 E5.38059
G1 X82.405 Y143.085 E5.44693
G1 X79.930 Y141.769 E5.52385
G1 X77.688 Y140.393 E5.59603
G1 X75.539 Y138.896 E5.66790
G1 X73.474 Y137.274 E5.73995
G1 X71.504 Y135.531 E5.81213
G1 X69.632 Y133.671 E5.88454
G1 X67.864 Y131.697 E5.95726
G1 X66.335 Y129.772 E6.02472
G1 X64.674 Y127.432 E6.10346
G1 X63.216 Y125.077 E6.17946
G1 X62.020 Y122.851 E6.24880
G1 X60.784 Y120.202 E6.32901
G1 X59.867 Y117.837 E6.39862
G1 X58.963 Y115.045 E6.47915
G1 X58.284 Y112.352 E6.55536
G1 X57.762 Y109.614 E6.63184
G1 X57.371 Y106.672 E6.71328
G1 X57.254 Y103.005 E6.81395
G1 X57.238 Y102.503 E6.82774
G1 X57.351 Y98.943 E6.92547
G1 X57.374 Y98.264 E6.94411
G1 X58.005 Y94.111 E7.05938
G1 X58.093 Y93.537 E7.07532
G1 X58.590 Y91.366 E7.13643
G1 X59.210 Y89.132 E7.20005
G1 X60.008 Y86.764 E7.26862
G1 X60.753 Y84.899 E7.32372
G1 X60.879 Y84.589 E7.33291
G1 X61.774 Y82.656 E7.39136
G1 X62.776 Y80.733 E7.45086
G1 X62.946 Y80.408 E7.46092
G1 X64.325 Y78.123 E7.53416
G1 X64.558 Y77.738 E7.54651
G1 X66.214 Y75.392 E7.62530
G1 X68.170 Y72.970 E7.71073
G1 X70.545 Y70.419 E7.80637
G1 F2700 E3.30637
G0 F9000 X75.611 Y75.544
;TYPE:WALL-INNER
G1 F2700 E7.80637
G1 F1200 X78.327 Y73.077 E7.90705
G1 X81.235 Y70.901 E8.00672
G1 X84.324 Y69.025 E8.10589
G1 X87.375 Y67.552 E8.19885
G1 X87.625 Y67.431 E8.20647
G1 X89.867 Y66.568 E8.27240
G1 X92.584 Y65.720 E8.35050
G1 X94.935 Y65.176 E8.41671
G1 X97.759 Y64.709 E8.49526
G1 X100.145 Y64.498 E8.56098
G1 X102.833 Y64.428 E8.63477
G1 X103.026 Y64.424 E8.64007
G1 X105.666 Y64.549 E8.71259
G1 X108.309 Y64.865 E8.78563
G1 X111.393 Y65.481 E8.87193
G1 X111.638 Y65.530 E8.87878
G1 X114.609 Y66.405 E8.96377
G1 X115.105 Y66.575 E8.97816
G1 X117.985 Y67.713 E9.06313
G1 X120.984 Y69.215 E9.15517
G1 X123.850 Y70.983 E9.24757
G1 X126.345 Y72.845 E9.33300
G1 X126.550 Y72.999 E9.34003
G1 X129.072 Y75.250 E9.43280
G1 X131.421 Y77.753 E9.52699
G1 X133.036 Y79.782 E9.59815
G1 X134.786 Y82.330 E9.68297
G1 X136.093 Y84.608 E9.75503
G1 X137.317 Y87.122 E9.83176
G1 X138.463 Y89.994 E9.91661
G1 X139.225 Y92.466 E9.98759
G1 X139.919 Y95.442 E10.07144
G1 X140.331 Y98.224 E10.14862
G1 X140.487 Y100.163 E10.20199
G1 X140.558 Y102.517 E10.26662
G1 X140.503 Y104.679 E10.32596
G1 X140.331 Y106.781 E10.38383
G1 X140.045 Y108.837 E10.44079
G1 X139.677 Y110.713 E10.49325
G1 X139.181 Y112.710 E10.54972
G1 X138.562 Y114.714 E10.60727
G1 X137.852 Y116.632 E10.66339
G1 X136.954 Y118.701 E10.72528
G1 X136.122 Y120.351 E10.77599
G1 X134.999 Y122.319 E10.83816
G1 X133.881 Y124.042 E10.89452
G1 X132.760 Y125.583 E10.94681
G1 X131.346 Y127.333 E11.00855
G1 X130.080 Y128.728 E11.06024
G1 X128.476 Y130.324 E11.12233
G1 X126.912 Y131.710 E11.17968
G1 X125.264 Y133.016 E11.23738
G1 X123.549 Y134.228 E11.29500
G1 X121.122 Y135.704 E11.37295
G1 X120.929 Y135.822 E11.37916
G1 X118.413 Y137.086 E11.45642
G1 X115.378 Y138.337 E11.54650
G1 X112.474 Y139.253 E11.63005
G1 X109.756 Y139.876 E11.70657
G1 X109.254 Y139.970 E11.72058
G1 X106.495 Y140.377 E11.79711
G1 X103.444 Y140.576 E11.88101
G1 X100.374 Y140.530 E11.96526
G1 X98.132 Y140.338 E12.02701
G1 X95.920 Y140.017 E12.08834
G1 X93.726 Y139.566 E12.14980
G1 X91.787 Y139.047 E12.20488
G1 X89.495 Y138.301 E12.27102
G1 X87.440 Y137.487 E12.33167
G1 X85.623 Y136.641 E12.38667
G1 X83.501 Y135.512 E12.45263
G1 X81.634 Y134.366 E12.51274
G1 X79.824 Y133.107 E12.57324
G1 X78.081 Y131.737 E12.63407
G1 X76.428 Y130.274 E12.69465
G1 X74.861 Y128.717 E12.75526
G1 X73.372 Y127.055 E12.81649
G1 X72.090 Y125.441 E12.87305
G1 X70.675 Y123.448 E12.94012
G1 X69.457 Y121.479 E13.00366
G1 X68.462 Y119.628 E13.06132
G1 X67.406 Y117.364 E13.12987
G1 X66.654 Y115.425 E13.18694
G1 X65.889 Y113.062 E13.25509
G1 X65.316 Y110.792 E13.31934
G1 X64.872 Y108.464 E13.38437
G1 X64.557 Y106.087 E13.45016
G1 X64.442 Y102.494 E13.54881
G1 X64.556 Y98.923 E13.64685
G1 X65.122 Y95.200 E13.75018
G1 X65.169 Y94.895 E13.75865
G1 X65.571 Y93.136 E13.80816
G1 X66.095 Y91.248 E13.86192
G1 X66.766 Y89.255 E13.91963
G1 X67.432 Y87.588 E13.96889
G1 X68.240 Y85.828 E14.02203
G1 X69.157 Y84.066 E14.07653
G1 X69.222 Y83.942 E14.08038
G1 X70.586 Y81.684 E14.15276
G1 X71.957 Y79.740 E14.21804
G1 X73.614 Y77.689 E14.29039
G1 X75.611 Y75.544 E14.37081
G0 F9000 X75.186 Y75.120
;TYPE:WALL-OUTER
G1 F1200 X77.949 Y72.610 E14.47324
G1 X80.896 Y70.405 E14.57424
G1 X84.036 Y68.498 E14.67504
G1 X87.377 Y66.884 E14.77686
G1 X89.677 Y65.998 E14.84449
G1 X92.428 Y65.140 E14.92357
G1 X94.813 Y64.588 E14.99074
G1 X97.674 Y64.115 E15.07031
G1 X100.124 Y63.898 E15.13780
G1 X102.818 Y63.828 E15.21175
G1 X103.028 Y63.823 E15.21752
G1 X105.723 Y63.952 E15.29155
G1 X108.408 Y64.272 E15.36575
G1 X111.775 Y64.945 E15.45997
G1 X114.799 Y65.836 E15.54648
G1 X115.327 Y66.017 E15.56179
G1 X118.234 Y67.166 E15.64757
G1 X121.273 Y68.688 E15.74083
G1 X124.187 Y70.486 E15.83479
G1 X126.914 Y72.520 E15.92814
G1 X129.497 Y74.827 E16.02317
G1 X131.870 Y77.354 E16.11829
G1 X133.527 Y79.436 E16.19131
G1 X135.293 Y82.010 E16.27696
G1 X136.729 Y84.509 E16.35605
G1 X137.867 Y86.882 E16.42827
G1 X139.028 Y89.791 E16.51422
G1 X139.806 Y92.316 E16.58672
G1 X140.508 Y95.325 E16.67150
G1 X140.929 Y98.168 E16.75036
G1 X141.087 Y100.133 E16.80446
G1 X141.159 Y102.526 E16.87015
G1 X141.102 Y104.707 E16.93002
G1 X140.928 Y106.843 E16.98883
G1 X140.636 Y108.942 E17.04698
G1 X140.266 Y110.832 E17.09982
G1 X139.758 Y112.874 E17.15756
G1 X139.133 Y114.896 E17.21564
G1 X139.086 Y115.048 E17.22000
G1 X138.406 Y116.863 E17.27319
G1 X137.508 Y118.934 E17.33513
G1 X136.643 Y120.648 E17.38781
G1 X135.510 Y122.635 E17.45058
G1 X134.376 Y124.382 E17.50773
G1 X133.235 Y125.950 E17.56094
G1 X131.813 Y127.711 E17.62305
G1 X130.514 Y129.142 E17.67608
G1 X128.882 Y130.766 E17.73926
G1 X127.290 Y132.177 E17.79763
G1 X125.633 Y133.490 E17.85565
G1 X123.879 Y134.730 E17.91459
G1 X121.225 Y136.345 E17.99984
G1 X118.672 Y137.627 E18.07823
G1 X118.223 Y137.831 E18.09176
G1 X115.579 Y138.903 E18.17005
G1 X112.629 Y139.833 E18.25493
G1 X109.872 Y140.465 E18.33254
G1 X109.375 Y140.558 E18.34642
G1 X106.547 Y140.975 E18.42486
G1 X103.461 Y141.177 E18.50972
G1 X100.342 Y141.129 E18.59531
G1 X98.063 Y140.935 E18.65808
G1 X95.814 Y140.608 E18.72044
G1 X93.603 Y140.154 E18.78237
G1 X91.598 Y139.617 E18.83933
G1 X89.297 Y138.868 E18.90573
G1 X87.206 Y138.040 E18.96744
G1 X85.349 Y137.175 E19.02366
G1 X83.211 Y136.038 E19.09010
G1 X81.296 Y134.863 E19.15175
G1 X79.470 Y133.592 E19.21280
G1 X77.710 Y132.209 E19.27422
G1 X76.015 Y130.709 E19.33633
G1 X74.414 Y129.118 E19.39827
G1 X72.916 Y127.445 E19.45989
G1 X71.615 Y125.808 E19.51727
G1 X70.171 Y123.774 E19.58572
G1 X68.930 Y121.768 E19.65044
G1 X67.926 Y119.898 E19.70868
G1 X66.858 Y117.610 E19.77797
G1 X66.086 Y115.619 E19.83657
G1 X65.311 Y113.227 E19.90556
G1 X64.732 Y110.930 E19.97056
G1 X64.279 Y108.553 E20.03696
G1 X63.958 Y106.135 E20.10390
G1 X63.841 Y102.500 E20.20369
G1 X63.957 Y98.872 E20.30330
G1 X64.582 Y94.767 E20.41724
G1 X64.988 Y92.992 E20.46720
G1 X65.524 Y91.062 E20.52216
G1 X66.202 Y89.051 E20.58040
G1 X66.876 Y87.363 E20.63027
G1 X66.938 Y87.210 E20.63480
G1 X67.695 Y85.575 E20.68424
G1 X68.700 Y83.647 E20.74390
G1 X70.087 Y81.350 E20.81753
G1 X71.482 Y79.374 E20.88391
G1 X73.159 Y77.298 E20.95714
G1 X75.186 Y75.120 E21.03878
G0 F9000 X75.947 Y75.523
;TYPE:SKIN
G1 F1200 X129.465 Y129.041 E23.11561
G0 F9000 X129.040 Y129.464
G1 F1200 X75.522 Y75.946 E25.19245
G0 F9000 X75.113 Y76.385
G1 F1200 X128.614 Y129.887 E27.26864
G0 F9000 X128.182 Y130.303
G1 F1200 X74.704 Y76.825 E29.34392
G0 F9000 X74.295 Y77.264
G1 F1200 X127.731 Y130.701 E31.41759
G0 F9000 X127.282 Y131.100
G1 F1200 X73.886 Y77.704 E33.48969
G0 F9000 X73.498 Y78.165
G1 F1200 X126.831 Y131.498 E35.55935
G0 F9000 X126.362 Y131.877
G1 F1200 X73.119 Y78.634 E37.62551
G0 F9000 X72.740 Y79.104
G1 F1200 X125.888 Y132.252 E39.68799
G0 F9000 X125.415 Y132.627
G1 F1200 X72.361 Y79.573 E41.74682
G0 F9000 X76.392 Y75.119
G1 F1200 X129.890 Y128.617 E43.82287
G0 F9000 X130.297 Y128.175
G1 F1200 X76.836 Y74.715 E45.89748
G0 F9000 X77.281 Y74.311
G1 F1200 X130.700 Y127.731 E47.97049
G0 F9000 X131.104 Y127.286
G1 F1200 X77.725 Y73.907 E50.04193
G0 F9000 X78.170 Y73.503
G1 F1200 X131.489 Y126.822 E52.11104
G0 F9000 X131.868 Y126.352
G1 F1200 X78.628 Y73.113 E54.17707
G0 F9000 X79.114 Y72.750
G1 F1200 X132.247 Y125.883 E56.23896
G0 F9000 X132.624 Y125.412
G1 F1200 X79.599 Y72.387 E58.29666
G0 F9000 X80.085 Y72.024
G1 F1200 X132.982 Y124.921 E60.34940
G0 F9000 X133.339 Y124.429
G1 F1200 X80.570 Y71.661 E62.39715
G0 F9000 X81.055 Y71.297
G1 F1200 X133.696 Y123.938 E64.43995
G0 F9000 X134.031 Y123.424
G1 F1200 X81.557 Y70.951 E66.47625
G0 F9000 X82.085 Y70.630
G1 F1200 X134.365 Y122.910 E68.50504
G0 F9000 X134.699 Y122.395
G1 F1200 X82.613 Y70.309 E70.52630
G0 F9000 X83.140 Y69.988
G1 F1200 X135.017 Y121.864 E72.53944
G0 F9000 X135.324 Y121.323
G1 F1200 X83.669 Y69.668 E74.54398
G0 F9000 X84.196 Y69.347
G1 F1200 X135.632 Y120.783 E76.54002
G0 F9000 X135.941 Y120.243
G1 F1200 X84.749 Y69.051 E78.52659
G0 F9000 X85.322 Y68.776
G1 F1200 X136.225 Y119.679 E80.50194
G0 F9000 X136.509 Y119.114
G1 F1200 X85.894 Y68.499 E82.46612
G0 F9000 X86.466 Y68.223
G1 F1200 X136.791 Y118.548 E84.41905
G0 F9000 X137.048 Y117.956
G1 F1200 X87.039 Y67.947 E86.35971
G0 F9000 X87.611 Y67.670
G1 F1200 X137.305 Y117.365 E88.28817
G0 F9000 X137.562 Y116.773
G1 F1200 X88.217 Y67.428 E90.20306
G0 F9000 X88.830 Y67.192
G1 F1200 X137.801 Y116.164 E92.10347
G0 F9000 X138.030 Y115.544
G1 F1200 X89.442 Y66.956 E93.98898
G0 F9000 X90.061 Y66.726
G1 F1200 X138.259 Y114.924 E95.85937
G0 F9000 X138.472 Y114.288
G1 F1200 X90.708 Y66.525 E97.71289
G0 F9000 X91.354 Y66.323
G1 F1200 X138.672 Y113.641 E99.54913
G0 F9000 X138.872 Y112.992
G1 F1200 X92.000 Y66.120 E101.36806
G0 F9000 X92.648 Y65.920
G1 F1200 X139.058 Y112.330 E103.16905
G0 F9000 X139.227 Y111.650
G1 F1200 X93.338 Y65.760 E104.94986
G0 F9000 X94.026 Y65.601
G1 F1200 X139.396 Y110.971 E106.71050
G0 F9000 X139.549 Y110.275
G1 F1200 X94.716 Y65.442 E108.45030
G0 F9000 X95.430 Y65.307
G1 F1200 X139.688 Y109.566 E110.16780
G0 F9000 X139.827 Y108.856
G1 F1200 X96.158 Y65.186 E111.86246
G0 F9000 X96.886 Y65.066
G1 F1200 X139.933 Y108.113 E113.53295
G0 F9000 X140.036 Y107.368
G1 F1200 X97.614 Y64.946 E115.17919
G0 F9000 X98.382 Y64.865
G1 F1200 X140.133 Y106.616 E116.79939
G0 F9000 X140.197 Y105.831
G1 F1200 X99.161 Y64.796 E118.39182
G0 F9000 X99.941 Y64.727
G1 F1200 X140.261 Y105.047 E119.95649
G0 F9000 X140.303 Y104.240
G1 F1200 X100.755 Y64.693 E121.49118
G0 F9000 X101.582 Y64.671
G1 F1200 X140.324 Y103.413 E122.99462
G0 F9000 X140.345 Y102.586
G1 F1200 X102.409 Y64.650 E124.46677
G0 F9000 X103.253 Y64.645
G1 F1200 X140.323 Y101.715 E125.90532
G0 F9000 X140.297 Y100.840
G1 F1200 X104.144 Y64.687 E127.30828
G0 F9000 X105.035 Y64.729
G1 F1200 X140.259 Y99.954 E128.67522
G0 F9000 X140.185 Y99.031
G1 F1200 X105.948 Y64.795 E130.00381
G0 F9000 X106.912 Y64.910
G1 F1200 X140.099 Y98.096 E131.29165
G0 F9000 X139.951 Y97.100
G1 F1200 X107.876 Y65.025 E132.53636
G0 F9000 X108.896 Y65.197
G1 F1200 X139.803 Y96.104 E133.73575
G0 F9000 X139.615 Y95.067
G1 F1200 X109.957 Y65.409 E134.88666
G0 F9000 X111.017 Y65.621
G1 F1200 X139.358 Y93.961 E135.98645
G0 F9000 X139.099 Y92.855
G1 F1200 X112.144 Y65.899 E137.03250
G0 F9000 X113.346 Y66.253
G1 F1200 X138.757 Y91.664 E138.01860
G0 F9000 X138.379 Y90.437
G1 F1200 X114.549 Y66.607 E138.94336
G0 F9000 X115.910 Y67.119
G1 F1200 X137.871 Y89.081 E139.79560
G0 F9000 X137.307 Y87.668
G1 F1200 X117.312 Y67.673 E140.57153
G0 F9000 X118.887 Y68.399
G1 F1200 X136.582 Y86.095 E141.25823
G0 F9000 X135.727 Y84.391
G1 F1200 X120.586 Y69.250 E141.84579
G0 F9000 X122.712 Y70.527
G1 F1200 X134.565 Y82.380 E142.30576
G0 F9000 X132.574 Y79.541
G1 F1200 X125.535 Y72.502 E142.57892
G0 F9000 X71.991 Y80.052
G1 F1200 X124.931 Y132.992 E144.63332
G0 F9000 X124.434 Y133.344
G1 F1200 X71.641 Y80.550 E146.68204
G0 F9000 X71.290 Y81.048
G1 F1200 X123.937 Y133.695 E148.72508
G0 F9000 X123.439 Y134.046
G1 F1200 X70.939 Y81.545 E150.76243
G0 F9000 X70.603 Y82.059
G1 F1200 X122.912 Y134.367 E152.79232
G0 F9000 X122.385 Y134.688
G1 F1200 X70.284 Y82.587 E154.81417
G0 F9000 X69.964 Y83.116
G1 F1200 X121.858 Y135.010 E156.82798
G0 F9000 X121.331 Y135.331
G1 F1200 X69.645 Y83.645 E158.83372
G0 F9000 X69.331 Y84.181
G1 F1200 X120.801 Y135.650 E160.83106
G0 F9000 X120.236 Y135.934
G1 F1200 X69.041 Y84.739 E162.81775
G0 F9000 X68.751 Y85.297
G1 F1200 X119.671 Y136.217 E164.79377
G0 F9000 X119.106 Y136.501
G1 F1200 X68.461 Y85.856 E166.75911
G0 F9000 X68.191 Y86.435
G1 F1200 X118.541 Y136.784 E168.71299
G0 F9000 X117.955 Y137.047
G1 F1200 X67.924 Y87.016 E170.65450
G0 F9000 X67.657 Y87.597
G1 F1200 X117.354 Y137.294 E172.58306
G0 F9000 X116.753 Y137.542
G1 F1200 X67.412 Y88.200 E174.49782
G0 F9000 X67.170 Y88.807
G1 F1200 X116.152 Y137.790 E176.39865
G0 F9000 X115.551 Y138.037
G1 F1200 X66.931 Y89.417 E178.28541
G0 F9000 X66.718 Y90.052
G1 F1200 X114.924 Y138.259 E180.15612
G0 F9000 X114.279 Y138.462
G1 F1200 X66.504 Y90.687 E182.01009
G0 F9000 X66.291 Y91.323
G1 F1200 X113.634 Y138.665 E183.84728
G0 F9000 X112.989 Y138.869
G1 F1200 X66.107 Y91.987 E185.66659
G0 F9000 X65.922 Y92.651
G1 F1200 X112.338 Y139.067 E187.46782
G0 F9000 X111.648 Y139.225
G1 F1200 X65.743 Y93.320 E189.24923
G0 F9000 X65.585 Y94.011
G1 F1200 X110.957 Y139.383 E191.00995
G0 F9000 X110.267 Y139.541
